(Project Navigator Bracket5 2d)
(Created by Estlcam version 8 build 8,304)
(Machining time about 0:40:54 hours)

(Required tools:)
(End mill 5mm)
(New tool 7)

G90
M03 S20000
G00 Z5.0000


(No. 1: ??????? ?????????? ????? 1)
G00 X-3.0000 Y5.0000
G00 Z0.5000
G01 Z-0.2500 F900 S20000
G03 X-0.2122 Y2.0075 I3.0000 J0.0000 F3000
G01 X53.0000 Y2.0000
G03 X55.1521 Y2.9099 I0.0000 J3.0000
G03 X56.0000 Y5.0200 I-2.1525 J2.0904
G01 Y58.0000
G03 X52.9800 Y61.0000 I-3.0001 J0.0000
G01 X0.0000
G03 X-2.1521 Y60.0901 I0.0000 J-3.0000
G03 X-3.0000 Y57.9800 I2.1525 J-2.0904
G01 Y5.0000
G01 Z-0.5000 F900
G03 X-0.2122 Y2.0075 I3.0000 J0.0000 F3000
G01 X53.0000 Y2.0000
G03 X55.1521 Y2.9099 I0.0000 J3.0000
G03 X56.0000 Y5.0200 I-2.1525 J2.0904
G01 Y58.0000
G03 X52.9800 Y61.0000 I-3.0001 J0.0000
G01 X0.0000
G03 X-2.1521 Y60.0901 I0.0000 J-3.0000
G03 X-3.0000 Y57.9800 I2.1525 J-2.0904
G01 Y5.0000
G01 Z-0.7500 F900
G03 X-0.2122 Y2.0075 I3.0000 J0.0000 F3000
G01 X53.0000 Y2.0000
G03 X55.1521 Y2.9099 I0.0000 J3.0000
G03 X56.0000 Y5.0200 I-2.1525 J2.0904
G01 Y58.0000
G03 X52.9800 Y61.0000 I-3.0001 J0.0000
G01 X0.0000
G03 X-2.1521 Y60.0901 I0.0000 J-3.0000
G03 X-3.0000 Y57.9800 I2.1525 J-2.0904
G01 Y5.0000
G01 Z-1.0000 F900
G03 X-0.2122 Y2.0075 I3.0000 J0.0000 F3000
G01 X53.0000 Y2.0000
G03 X55.1521 Y2.9099 I0.0000 J3.0000
G03 X56.0000 Y5.0200 I-2.1525 J2.0904
G01 Y58.0000
G03 X52.9800 Y61.0000 I-3.0001 J0.0000
G01 X0.0000
G03 X-2.1521 Y60.0901 I0.0000 J-3.0000
G03 X-3.0000 Y57.9800 I2.1525 J-2.0904
G01 Y5.0000
G01 Z-1.2500 F900
G03 X-0.2122 Y2.0075 I3.0000 J0.0000 F3000
G01 X53.0000 Y2.0000
G03 X55.1521 Y2.9099 I0.0000 J3.0000
G03 X56.0000 Y5.0200 I-2.1525 J2.0904
G01 Y58.0000
G03 X52.9800 Y61.0000 I-3.0001 J0.0000
G01 X0.0000
G03 X-2.1521 Y60.0901 I0.0000 J-3.0000
G03 X-3.0000 Y57.9800 I2.1525 J-2.0904
G01 Y5.0000
G01 Z-1.5000 F900
G03 X-0.2122 Y2.0075 I3.0000 J0.0000 F3000
G01 X53.0000 Y2.0000
G03 X55.1521 Y2.9099 I0.0000 J3.0000
G03 X56.0000 Y5.0200 I-2.1525 J2.0904
G01 Y58.0000
G03 X52.9800 Y61.0000 I-3.0001 J0.0000
G01 X0.0000
G03 X-2.1521 Y60.0901 I0.0000 J-3.0000
G03 X-3.0000 Y57.9800 I2.1525 J-2.0904
G01 Y5.0000
G01 Z-1.7500 F900
G03 X-0.2122 Y2.0075 I3.0000 J0.0000 F3000
G01 X53.0000 Y2.0000
G03 X55.1521 Y2.9099 I0.0000 J3.0000
G03 X56.0000 Y5.0200 I-2.1525 J2.0904
G01 Y58.0000
G03 X52.9800 Y61.0000 I-3.0001 J0.0000
G01 X0.0000
G03 X-2.1521 Y60.0901 I0.0000 J-3.0000
G03 X-3.0000 Y57.9800 I2.1525 J-2.0904
G01 Y5.0000
G01 Z-2.0000 F900
G03 X-0.2122 Y2.0075 I3.0000 J0.0000 F3000
G01 X53.0000 Y2.0000
G03 X55.1521 Y2.9099 I0.0000 J3.0000
G03 X56.0000 Y5.0200 I-2.1525 J2.0904
G01 Y58.0000
G03 X52.9800 Y61.0000 I-3.0001 J0.0000
G01 X0.0000
G03 X-2.1521 Y60.0901 I0.0000 J-3.0000
G03 X-3.0000 Y57.9800 I2.1525 J-2.0904
G01 Y5.0000
G01 Z-2.2500 F900
G03 X-0.2122 Y2.0075 I3.0000 J0.0000 F3000
G01 X53.0000 Y2.0000
G03 X55.1521 Y2.9099 I0.0000 J3.0000
G03 X56.0000 Y5.0200 I-2.1525 J2.0904
G01 Y58.0000
G03 X52.9800 Y61.0000 I-3.0001 J0.0000
G01 X0.0000
G03 X-2.1521 Y60.0901 I0.0000 J-3.0000
G03 X-3.0000 Y57.9800 I2.1525 J-2.0904
G01 Y5.0000
G01 Z-2.5000 F900
G03 X-0.2122 Y2.0075 I3.0000 J0.0000 F3000
G01 X53.0000 Y2.0000
G03 X55.1521 Y2.9099 I0.0000 J3.0000
G03 X56.0000 Y5.0200 I-2.1525 J2.0904
G01 Y58.0000
G03 X52.9800 Y61.0000 I-3.0001 J0.0000
G01 X0.0000
G03 X-2.1521 Y60.0901 I0.0000 J-3.0000
G03 X-3.0000 Y57.9800 I2.1525 J-2.0904
G01 Y5.0000
G01 Z-2.7500 F900
G03 X-0.2122 Y2.0075 I3.0000 J0.0000 F3000
G01 X53.0000 Y2.0000
G03 X55.1521 Y2.9099 I0.0000 J3.0000
G03 X56.0000 Y5.0200 I-2.1525 J2.0904
G01 Y58.0000
G03 X52.9800 Y61.0000 I-3.0001 J0.0000
G01 X0.0000
G03 X-2.1521 Y60.0901 I0.0000 J-3.0000
G03 X-3.0000 Y57.9800 I2.1525 J-2.0904
G01 Y5.0000
G01 Z-3.0000 F900
G03 X-0.2122 Y2.0075 I3.0000 J0.0000 F3000
G01 X53.0000 Y2.0000
G03 X55.1521 Y2.9099 I0.0000 J3.0000
G03 X56.0000 Y5.0200 I-2.1525 J2.0904
G01 Y58.0000
G03 X52.9800 Y61.0000 I-3.0001 J0.0000
G01 X0.0000
G03 X-2.1521 Y60.0901 I0.0000 J-3.0000
G03 X-3.0000 Y57.9800 I2.1525 J-2.0904
G01 Y5.0000
G01 Z-3.2500 F900
G03 X-0.2122 Y2.0075 I3.0000 J0.0000 F3000
G01 X53.0000 Y2.0000
G03 X55.1521 Y2.9099 I0.0000 J3.0000
G03 X56.0000 Y5.0200 I-2.1525 J2.0904
G01 Y58.0000
G03 X52.9800 Y61.0000 I-3.0001 J0.0000
G01 X0.0000
G03 X-2.1521 Y60.0901 I0.0000 J-3.0000
G03 X-3.0000 Y57.9800 I2.1525 J-2.0904
G01 Y5.0000
G01 Z-3.5000 F900
G03 X-0.2122 Y2.0075 I3.0000 J0.0000 F3000
G01 X53.0000 Y2.0000
G03 X55.1521 Y2.9099 I0.0000 J3.0000
G03 X56.0000 Y5.0200 I-2.1525 J2.0904
G01 Y58.0000
G03 X52.9800 Y61.0000 I-3.0001 J0.0000
G01 X0.0000
G03 X-2.1521 Y60.0901 I0.0000 J-3.0000
G03 X-3.0000 Y57.9800 I2.1525 J-2.0904
G01 Y5.0000
G01 Z-3.7500 F900
G03 X-0.2122 Y2.0075 I3.0000 J0.0000 F3000
G01 X53.0000 Y2.0000
G03 X55.1521 Y2.9099 I0.0000 J3.0000
G03 X56.0000 Y5.0200 I-2.1525 J2.0904
G01 Y58.0000
G03 X52.9800 Y61.0000 I-3.0001 J0.0000
G01 X0.0000
G03 X-2.1521 Y60.0901 I0.0000 J-3.0000
G03 X-3.0000 Y57.9800 I2.1525 J-2.0904
G01 Y5.0000
G01 Z-4.0000 F900
G03 X-0.2122 Y2.0075 I3.0000 J0.0000 F3000
G01 X53.0000 Y2.0000
G03 X55.1521 Y2.9099 I0.0000 J3.0000
G03 X56.0000 Y5.0200 I-2.1525 J2.0904
G01 Y58.0000
G03 X52.9800 Y61.0000 I-3.0001 J0.0000
G01 X0.0000
G03 X-2.1521 Y60.0901 I0.0000 J-3.0000
G03 X-3.0000 Y57.9800 I2.1525 J-2.0904
G01 Y5.0000
G01 Z-4.2500 F900
G03 X-0.2122 Y2.0075 I3.0000 J0.0000 F3000
G01 X53.0000 Y2.0000
G03 X55.1521 Y2.9099 I0.0000 J3.0000
G03 X56.0000 Y5.0200 I-2.1525 J2.0904
G01 Y58.0000
G03 X52.9800 Y61.0000 I-3.0001 J0.0000
G01 X0.0000
G03 X-2.1521 Y60.0901 I0.0000 J-3.0000
G03 X-3.0000 Y57.9800 I2.1525 J-2.0904
G01 Y5.0000
G01 Z-4.5000 F900
G03 X-0.2122 Y2.0075 I3.0000 J0.0000 F3000
G01 X53.0000 Y2.0000
G03 X55.1521 Y2.9099 I0.0000 J3.0000
G03 X56.0000 Y5.0200 I-2.1525 J2.0904
G01 Y58.0000
G03 X52.9800 Y61.0000 I-3.0001 J0.0000
G01 X0.0000
G03 X-2.1521 Y60.0901 I0.0000 J-3.0000
G03 X-3.0000 Y57.9800 I2.1525 J-2.0904
G01 Y5.0000
G01 Z-4.7500 F900
G03 X-0.2122 Y2.0075 I3.0000 J0.0000 F3000
G01 X53.0000 Y2.0000
G03 X55.1521 Y2.9099 I0.0000 J3.0000
G03 X56.0000 Y5.0200 I-2.1525 J2.0904
G01 Y58.0000
G03 X52.9800 Y61.0000 I-3.0001 J0.0000
G01 X0.0000
G03 X-2.1521 Y60.0901 I0.0000 J-3.0000
G03 X-3.0000 Y57.9800 I2.1525 J-2.0904
G01 Y5.0000
G01 Z-5.0000 F900
G03 X-0.2122 Y2.0075 I3.0000 J0.0000 F3000
G01 X53.0000 Y2.0000
G03 X55.1521 Y2.9099 I0.0000 J3.0000
G03 X56.0000 Y5.0200 I-2.1525 J2.0904
G01 Y58.0000
G03 X52.9800 Y61.0000 I-3.0001 J0.0000
G01 X0.0000
G03 X-2.1521 Y60.0901 I0.0000 J-3.0000
G03 X-3.0000 Y57.9800 I2.1525 J-2.0904
G01 Y5.0000
G01 Z-5.2500 F900
G03 X-0.2122 Y2.0075 I3.0000 J0.0000 F3000
G01 X53.0000 Y2.0000
G03 X55.1521 Y2.9099 I0.0000 J3.0000
G03 X56.0000 Y5.0200 I-2.1525 J2.0904
G01 Y58.0000
G03 X52.9800 Y61.0000 I-3.0001 J0.0000
G01 X0.0000
G03 X-2.1521 Y60.0901 I0.0000 J-3.0000
G03 X-3.0000 Y57.9800 I2.1525 J-2.0904
G01 Y5.0000
G01 Z-5.5000 F900
G03 X-0.2122 Y2.0075 I3.0000 J0.0000 F3000
G01 X53.0000 Y2.0000
G03 X55.1521 Y2.9099 I0.0000 J3.0000
G03 X56.0000 Y5.0200 I-2.1525 J2.0904
G01 Y58.0000
G03 X52.9800 Y61.0000 I-3.0001 J0.0000
G01 X0.0000
G03 X-2.1521 Y60.0901 I0.0000 J-3.0000
G03 X-3.0000 Y57.9800 I2.1525 J-2.0904
G01 Y5.0000
G01 Z-5.7500 F900
G03 X-0.2122 Y2.0075 I3.0000 J0.0000 F3000
G01 X53.0000 Y2.0000
G03 X55.1521 Y2.9099 I0.0000 J3.0000
G03 X56.0000 Y5.0200 I-2.1525 J2.0904
G01 Y58.0000
G03 X52.9800 Y61.0000 I-3.0001 J0.0000
G01 X0.0000
G03 X-2.1521 Y60.0901 I0.0000 J-3.0000
G03 X-3.0000 Y57.9800 I2.1525 J-2.0904
G01 Y5.0000
G01 Z-6.0000 F900
G03 X-0.2122 Y2.0075 I3.0000 J0.0000 F3000
G01 X53.0000 Y2.0000
G03 X55.1521 Y2.9099 I0.0000 J3.0000
G03 X56.0000 Y5.0200 I-2.1525 J2.0904
G01 Y58.0000
G03 X52.9800 Y61.0000 I-3.0001 J0.0000
G01 X0.0000
G03 X-2.1521 Y60.0901 I0.0000 J-3.0000
G03 X-3.0000 Y57.9800 I2.1525 J-2.0904
G01 Y5.0000
G01 Z-6.2500 F900
G03 X-0.2122 Y2.0075 I3.0000 J0.0000 F3000
G01 X53.0000 Y2.0000
G03 X55.1521 Y2.9099 I0.0000 J3.0000
G03 X56.0000 Y5.0200 I-2.1525 J2.0904
G01 Y58.0000
G03 X52.9800 Y61.0000 I-3.0001 J0.0000
G01 X0.0000
G03 X-2.1521 Y60.0901 I0.0000 J-3.0000
G03 X-3.0000 Y57.9800 I2.1525 J-2.0904
G01 Y5.0000
G01 Z-6.5000 F900
G03 X-0.2122 Y2.0075 I3.0000 J0.0000 F3000
G01 X53.0000 Y2.0000
G03 X55.1521 Y2.9099 I0.0000 J3.0000
G03 X56.0000 Y5.0200 I-2.1525 J2.0904
G01 Y58.0000
G03 X52.9800 Y61.0000 I-3.0001 J0.0000
G01 X0.0000
G03 X-2.1521 Y60.0901 I0.0000 J-3.0000
G03 X-3.0000 Y57.9800 I2.1525 J-2.0904
G01 Y5.0000
G01 Z-6.7500 F900
G03 X-0.2122 Y2.0075 I3.0000 J0.0000 F3000
G01 X53.0000 Y2.0000
G03 X55.1521 Y2.9099 I0.0000 J3.0000
G03 X56.0000 Y5.0200 I-2.1525 J2.0904
G01 Y58.0000
G03 X52.9800 Y61.0000 I-3.0001 J0.0000
G01 X0.0000
G03 X-2.1521 Y60.0901 I0.0000 J-3.0000
G03 X-3.0000 Y57.9800 I2.1525 J-2.0904
G01 Y5.0000
G01 Z-7.0000 F900
G03 X-0.2122 Y2.0075 I3.0000 J0.0000 F3000
G01 X53.0000 Y2.0000
G03 X55.1521 Y2.9099 I0.0000 J3.0000
G03 X56.0000 Y5.0200 I-2.1525 J2.0904
G01 Y58.0000
G03 X52.9800 Y61.0000 I-3.0001 J0.0000
G01 X0.0000
G03 X-2.1521 Y60.0901 I0.0000 J-3.0000
G03 X-3.0000 Y57.9800 I2.1525 J-2.0904
G01 Y5.0000
G01 Z-7.2500 F900
G03 X-0.2122 Y2.0075 I3.0000 J0.0000 F3000
G01 X53.0000 Y2.0000
G03 X55.1521 Y2.9099 I0.0000 J3.0000
G03 X56.0000 Y5.0200 I-2.1525 J2.0904
G01 Y58.0000
G03 X52.9800 Y61.0000 I-3.0001 J0.0000
G01 X0.0000
G03 X-2.1521 Y60.0901 I0.0000 J-3.0000
G03 X-3.0000 Y57.9800 I2.1525 J-2.0904
G01 Y5.0000
G01 Z-7.5000 F900
G03 X-0.2122 Y2.0075 I3.0000 J0.0000 F3000
G01 X53.0000 Y2.0000
G03 X55.1521 Y2.9099 I0.0000 J3.0000
G03 X56.0000 Y5.0200 I-2.1525 J2.0904
G01 Y58.0000
G03 X52.9800 Y61.0000 I-3.0001 J0.0000
G01 X0.0000
G03 X-2.1521 Y60.0901 I0.0000 J-3.0000
G03 X-3.0000 Y57.9800 I2.1525 J-2.0904
G01 Y5.0000
G01 Z-7.7500 F900
G03 X-0.2122 Y2.0075 I3.0000 J0.0000 F3000
G01 X53.0000 Y2.0000
G03 X55.1521 Y2.9099 I0.0000 J3.0000
G03 X56.0000 Y5.0200 I-2.1525 J2.0904
G01 Y58.0000
G03 X52.9800 Y61.0000 I-3.0001 J0.0000
G01 X0.0000
G03 X-2.1521 Y60.0901 I0.0000 J-3.0000
G03 X-3.0000 Y57.9800 I2.1525 J-2.0904
G01 Y5.0000
G01 Z-8.0000 F900
G03 X-0.2122 Y2.0075 I3.0000 J0.0000 F3000
G01 X53.0000 Y2.0000
G03 X55.1521 Y2.9099 I0.0000 J3.0000
G03 X56.0000 Y5.0200 I-2.1525 J2.0904
G01 Y58.0000
G03 X52.9800 Y61.0000 I-3.0001 J0.0000
G01 X0.0000
G03 X-2.1521 Y60.0901 I0.0000 J-3.0000
G03 X-3.0000 Y57.9800 I2.1525 J-2.0904
G01 Y5.0000
G01 Z-8.2500 F900
G03 X-0.2122 Y2.0075 I3.0000 J0.0000 F3000
G01 X53.0000 Y2.0000
G03 X55.1521 Y2.9099 I0.0000 J3.0000
G03 X56.0000 Y5.0200 I-2.1525 J2.0904
G01 Y58.0000
G03 X52.9800 Y61.0000 I-3.0001 J0.0000
G01 X0.0000
G03 X-2.1521 Y60.0901 I0.0000 J-3.0000
G03 X-3.0000 Y57.9800 I2.1525 J-2.0904
G01 Y5.0000
G01 Z-8.5000 F900
G03 X-0.2122 Y2.0075 I3.0000 J0.0000 F3000
G01 X53.0000 Y2.0000
G03 X55.1521 Y2.9099 I0.0000 J3.0000
G03 X56.0000 Y5.0200 I-2.1525 J2.0904
G01 Y58.0000
G03 X52.9800 Y61.0000 I-3.0001 J0.0000
G01 X0.0000
G03 X-2.1521 Y60.0901 I0.0000 J-3.0000
G03 X-3.0000 Y57.9800 I2.1525 J-2.0904
G01 Y5.0000
G01 Z-8.7500 F900
G03 X-0.2122 Y2.0075 I3.0000 J0.0000 F3000
G01 X53.0000 Y2.0000
G03 X55.1521 Y2.9099 I0.0000 J3.0000
G03 X56.0000 Y5.0200 I-2.1525 J2.0904
G01 Y58.0000
G03 X52.9800 Y61.0000 I-3.0001 J0.0000
G01 X0.0000
G03 X-2.1521 Y60.0901 I0.0000 J-3.0000
G03 X-3.0000 Y57.9800 I2.1525 J-2.0904
G01 Y5.0000
G01 Z-9.0000 F900
G03 X-0.2122 Y2.0075 I3.0000 J0.0000 F3000
G01 X53.0000 Y2.0000
G03 X55.1521 Y2.9099 I0.0000 J3.0000
G03 X56.0000 Y5.0200 I-2.1525 J2.0904
G01 Y58.0000
G03 X52.9800 Y61.0000 I-3.0001 J0.0000
G01 X0.0000
G03 X-2.1521 Y60.0901 I0.0000 J-3.0000
G03 X-3.0000 Y57.9800 I2.1525 J-2.0904
G01 Y5.0000
G01 Z-9.2500 F900
G03 X-0.2122 Y2.0075 I3.0000 J0.0000 F3000
G01 X53.0000 Y2.0000
G03 X55.1521 Y2.9099 I0.0000 J3.0000
G03 X56.0000 Y5.0200 I-2.1525 J2.0904
G01 Y58.0000
G03 X52.9800 Y61.0000 I-3.0001 J0.0000
G01 X0.0000
G03 X-2.1521 Y60.0901 I0.0000 J-3.0000
G03 X-3.0000 Y57.9800 I2.1525 J-2.0904
G01 Y5.0000
G01 Z-9.5000 F900
G03 X-0.2122 Y2.0075 I3.0000 J0.0000 F3000
G01 X53.0000 Y2.0000
G03 X55.1521 Y2.9099 I0.0000 J3.0000
G03 X56.0000 Y5.0200 I-2.1525 J2.0904
G01 Y58.0000
G03 X52.9800 Y61.0000 I-3.0001 J0.0000
G01 X0.0000
G03 X-2.1521 Y60.0901 I0.0000 J-3.0000
G03 X-3.0000 Y57.9800 I2.1525 J-2.0904
G01 Y5.0000
G01 Z-9.7500 F900
G03 X-0.2122 Y2.0075 I3.0000 J0.0000 F3000
G01 X53.0000 Y2.0000
G03 X55.1521 Y2.9099 I0.0000 J3.0000
G03 X56.0000 Y5.0200 I-2.1525 J2.0904
G01 Y58.0000
G03 X52.9800 Y61.0000 I-3.0001 J0.0000
G01 X0.0000
G03 X-2.1521 Y60.0901 I0.0000 J-3.0000
G03 X-3.0000 Y57.9800 I2.1525 J-2.0904
G01 Y5.0000
G01 Z-10.0000 F900
G03 X-0.2122 Y2.0075 I3.0000 J0.0000 F3000
G01 X53.0000 Y2.0000
G03 X55.1521 Y2.9099 I0.0000 J3.0000
G03 X56.0000 Y5.0200 I-2.1525 J2.0904
G01 Y58.0000
G03 X52.9800 Y61.0000 I-3.0001 J0.0000
G01 X0.0000
G03 X-2.1521 Y60.0901 I0.0000 J-3.0000
G03 X-3.0000 Y57.9800 I2.1525 J-2.0904
G01 Y5.0000
G01 Z-10.2500 F900
G03 X-0.2122 Y2.0075 I3.0000 J0.0000 F3000
G01 X53.0000 Y2.0000
G03 X55.1521 Y2.9099 I0.0000 J3.0000
G03 X56.0000 Y5.0200 I-2.1525 J2.0904
G01 Y58.0000
G03 X52.9800 Y61.0000 I-3.0001 J0.0000
G01 X0.0000
G03 X-2.1521 Y60.0901 I0.0000 J-3.0000
G03 X-3.0000 Y57.9800 I2.1525 J-2.0904
G01 Y5.0000
G01 Z-10.5000 F900
G03 X-0.2122 Y2.0075 I3.0000 J0.0000 F3000
G01 X53.0000 Y2.0000
G03 X55.1521 Y2.9099 I0.0000 J3.0000
G03 X56.0000 Y5.0200 I-2.1525 J2.0904
G01 Y58.0000
G03 X52.9800 Y61.0000 I-3.0001 J0.0000
G01 X0.0000
G03 X-2.1521 Y60.0901 I0.0000 J-3.0000
G03 X-3.0000 Y57.9800 I2.1525 J-2.0904
G01 Y5.0000
G01 Z-10.7500 F900
G03 X-0.2122 Y2.0075 I3.0000 J0.0000 F3000
G01 X53.0000 Y2.0000
G03 X55.1521 Y2.9099 I0.0000 J3.0000
G03 X56.0000 Y5.0200 I-2.1525 J2.0904
G01 Y58.0000
G03 X52.9800 Y61.0000 I-3.0001 J0.0000
G01 X0.0000
G03 X-2.1521 Y60.0901 I0.0000 J-3.0000
G03 X-3.0000 Y57.9800 I2.1525 J-2.0904
G01 Y5.0000
G01 Z-11.0000 F900
G03 X-0.2122 Y2.0075 I3.0000 J0.0000 F3000
G01 X53.0000 Y2.0000
G03 X55.1521 Y2.9099 I0.0000 J3.0000
G03 X56.0000 Y5.0200 I-2.1525 J2.0904
G01 Y58.0000
G03 X52.9800 Y61.0000 I-3.0001 J0.0000
G01 X0.0000
G03 X-2.1521 Y60.0901 I0.0000 J-3.0000
G03 X-3.0000 Y57.9800 I2.1525 J-2.0904
G01 Y5.0000
G01 Z-11.2500 F900
G03 X-0.2122 Y2.0075 I3.0000 J0.0000 F3000
G01 X53.0000 Y2.0000
G03 X55.1521 Y2.9099 I0.0000 J3.0000
G03 X56.0000 Y5.0200 I-2.1525 J2.0904
G01 Y58.0000
G03 X52.9800 Y61.0000 I-3.0001 J0.0000
G01 X0.0000
G03 X-2.1521 Y60.0901 I0.0000 J-3.0000
G03 X-3.0000 Y57.9800 I2.1525 J-2.0904
G01 Y5.0000
G01 Z-11.5000 F900
G03 X-0.2122 Y2.0075 I3.0000 J0.0000 F3000
G01 X53.0000 Y2.0000
G03 X55.1521 Y2.9099 I0.0000 J3.0000
G03 X56.0000 Y5.0200 I-2.1525 J2.0904
G01 Y58.0000
G03 X52.9800 Y61.0000 I-3.0001 J0.0000
G01 X0.0000
G03 X-2.1521 Y60.0901 I0.0000 J-3.0000
G03 X-3.0000 Y57.9800 I2.1525 J-2.0904
G01 Y5.0000
G01 Z-11.7500 F900
G03 X-0.2122 Y2.0075 I3.0000 J0.0000 F3000
G01 X53.0000 Y2.0000
G03 X55.1521 Y2.9099 I0.0000 J3.0000
G03 X56.0000 Y5.0200 I-2.1525 J2.0904
G01 Y58.0000
G03 X52.9800 Y61.0000 I-3.0001 J0.0000
G01 X0.0000
G03 X-2.1521 Y60.0901 I0.0000 J-3.0000
G03 X-3.0000 Y57.9800 I2.1525 J-2.0904
G01 Y5.0000
G01 Z-12.0000 F900
G03 X-0.2122 Y2.0075 I3.0000 J0.0000 F3000
G01 X53.0000 Y2.0000
G03 X55.1521 Y2.9099 I0.0000 J3.0000
G03 X56.0000 Y5.0200 I-2.1525 J2.0904
G01 Y58.0000
G03 X52.9800 Y61.0000 I-3.0001 J0.0000
G01 X0.0000
G03 X-2.1521 Y60.0901 I0.0000 J-3.0000
G03 X-3.0000 Y57.9800 I2.1525 J-2.0904
G01 Y5.0000
G01 Z-12.2500 F900
G03 X-0.2122 Y2.0075 I3.0000 J0.0000 F3000
G01 X53.0000 Y2.0000
G03 X55.1521 Y2.9099 I0.0000 J3.0000
G03 X56.0000 Y5.0200 I-2.1525 J2.0904
G01 Y58.0000
G03 X52.9800 Y61.0000 I-3.0001 J0.0000
G01 X0.0000
G03 X-2.1521 Y60.0901 I0.0000 J-3.0000
G03 X-3.0000 Y57.9800 I2.1525 J-2.0904
G01 Y5.0000
G01 Z-12.5000 F900
G03 X-0.2122 Y2.0075 I3.0000 J0.0000 F3000
G01 X53.0000 Y2.0000
G03 X55.1521 Y2.9099 I0.0000 J3.0000
G03 X56.0000 Y5.0200 I-2.1525 J2.0904
G01 Y58.0000
G03 X52.9800 Y61.0000 I-3.0001 J0.0000
G01 X0.0000
G03 X-2.1521 Y60.0901 I0.0000 J-3.0000
G03 X-3.0000 Y57.9800 I2.1525 J-2.0904
G01 Y5.0000
G01 Z-12.7500 F900
G03 X-0.2122 Y2.0075 I3.0000 J0.0000 F3000
G01 X53.0000 Y2.0000
G03 X55.1521 Y2.9099 I0.0000 J3.0000
G03 X56.0000 Y5.0200 I-2.1525 J2.0904
G01 Y58.0000
G03 X52.9800 Y61.0000 I-3.0001 J0.0000
G01 X0.0000
G03 X-2.1521 Y60.0901 I0.0000 J-3.0000
G03 X-3.0000 Y57.9800 I2.1525 J-2.0904
G01 Y5.0000
G01 Z-13.0000 F900
G03 X-0.2122 Y2.0075 I3.0000 J0.0000 F3000
G01 X53.0000 Y2.0000
G03 X55.1521 Y2.9099 I0.0000 J3.0000
G03 X56.0000 Y5.0200 I-2.1525 J2.0904
G01 Y58.0000
G03 X52.9800 Y61.0000 I-3.0001 J0.0000
G01 X0.0000
G03 X-2.1521 Y60.0901 I0.0000 J-3.0000
G03 X-3.0000 Y57.9800 I2.1525 J-2.0904
G01 Y5.0000
G01 Z-13.2500 F900
G03 X-0.2122 Y2.0075 I3.0000 J0.0000 F3000
G01 X53.0000 Y2.0000
G03 X55.1521 Y2.9099 I0.0000 J3.0000
G03 X56.0000 Y5.0200 I-2.1525 J2.0904
G01 Y58.0000
G03 X52.9800 Y61.0000 I-3.0001 J0.0000
G01 X0.0000
G03 X-2.1521 Y60.0901 I0.0000 J-3.0000
G03 X-3.0000 Y57.9800 I2.1525 J-2.0904
G01 Y5.0000
G01 Z-13.5000 F900
G03 X-0.2122 Y2.0075 I3.0000 J0.0000 F3000
G01 X53.0000 Y2.0000
G03 X55.1521 Y2.9099 I0.0000 J3.0000
G03 X56.0000 Y5.0200 I-2.1525 J2.0904
G01 Y58.0000
G03 X52.9800 Y61.0000 I-3.0001 J0.0000
G01 X0.0000
G03 X-2.1521 Y60.0901 I0.0000 J-3.0000
G03 X-3.0000 Y57.9800 I2.1525 J-2.0904
G01 Y5.0000
G01 Z-13.7500 F900
G03 X-0.2122 Y2.0075 I3.0000 J0.0000 F3000
G01 X53.0000 Y2.0000
G03 X55.1521 Y2.9099 I0.0000 J3.0000
G03 X56.0000 Y5.0200 I-2.1525 J2.0904
G01 Y58.0000
G03 X52.9800 Y61.0000 I-3.0001 J0.0000
G01 X0.0000
G03 X-2.1521 Y60.0901 I0.0000 J-3.0000
G03 X-3.0000 Y57.9800 I2.1525 J-2.0904
G01 Y5.0000
G01 Z-14.0000 F900
G03 X-0.2122 Y2.0075 I3.0000 J0.0000 F3000
G01 X53.0000 Y2.0000
G03 X55.1521 Y2.9099 I0.0000 J3.0000
G03 X56.0000 Y5.0200 I-2.1525 J2.0904
G01 Y58.0000
G03 X52.9800 Y61.0000 I-3.0001 J0.0000
G01 X0.0000
G03 X-2.1521 Y60.0901 I0.0000 J-3.0000
G03 X-3.0000 Y57.9800 I2.1525 J-2.0904
G01 Y5.0000
G01 Z-14.2500 F900
G03 X-0.2122 Y2.0075 I3.0000 J0.0000 F3000
G01 X53.0000 Y2.0000
G03 X55.1521 Y2.9099 I0.0000 J3.0000
G03 X56.0000 Y5.0200 I-2.1525 J2.0904
G01 Y58.0000
G03 X52.9800 Y61.0000 I-3.0001 J0.0000
G01 X0.0000
G03 X-2.1521 Y60.0901 I0.0000 J-3.0000
G03 X-3.0000 Y57.9800 I2.1525 J-2.0904
G01 Y5.0000
G01 Z-14.5000 F900
G03 X-0.2122 Y2.0075 I3.0000 J0.0000 F3000
G01 X53.0000 Y2.0000
G03 X55.1521 Y2.9099 I0.0000 J3.0000
G03 X56.0000 Y5.0200 I-2.1525 J2.0904
G01 Y58.0000
G03 X52.9800 Y61.0000 I-3.0001 J0.0000
G01 X0.0000
G03 X-2.1521 Y60.0901 I0.0000 J-3.0000
G03 X-3.0000 Y57.9800 I2.1525 J-2.0904
G01 Y5.0000
G01 Z-14.7500 F900
G03 X-0.2122 Y2.0075 I3.0000 J0.0000 F3000
G01 X53.0000 Y2.0000
G03 X55.1521 Y2.9099 I0.0000 J3.0000
G03 X56.0000 Y5.0200 I-2.1525 J2.0904
G01 Y58.0000
G03 X52.9800 Y61.0000 I-3.0001 J0.0000
G01 X0.0000
G03 X-2.1521 Y60.0901 I0.0000 J-3.0000
G03 X-3.0000 Y57.9800 I2.1525 J-2.0904
G01 Y5.0000
G01 Z-15.0000 F900
G03 X-0.2122 Y2.0075 I3.0000 J0.0000 F3000
G01 X53.0000 Y2.0000
G03 X55.1521 Y2.9099 I0.0000 J3.0000
G03 X56.0000 Y5.0200 I-2.1525 J2.0904
G01 Y58.0000
G03 X52.9800 Y61.0000 I-3.0001 J0.0000
G01 X0.0000
G03 X-2.1521 Y60.0901 I0.0000 J-3.0000
G03 X-3.0000 Y57.9800 I2.1525 J-2.0904
G01 Y5.0000
G01 Z-15.2500 F900
G03 X-0.2122 Y2.0075 I3.0000 J0.0000 F3000
G01 X53.0000 Y2.0000
G03 X55.1521 Y2.9099 I0.0000 J3.0000
G03 X56.0000 Y5.0200 I-2.1525 J2.0904
G01 Y58.0000
G03 X52.9800 Y61.0000 I-3.0001 J0.0000
G01 X0.0000
G03 X-2.1521 Y60.0901 I0.0000 J-3.0000
G03 X-3.0000 Y57.9800 I2.1525 J-2.0904
G01 Y5.0000
G01 Z-15.5000 F900
G03 X-0.2122 Y2.0075 I3.0000 J0.0000 F3000
G01 X53.0000 Y2.0000
G03 X55.1521 Y2.9099 I0.0000 J3.0000
G03 X56.0000 Y5.0200 I-2.1525 J2.0904
G01 Y58.0000
G03 X52.9800 Y61.0000 I-3.0001 J0.0000
G01 X0.0000
G03 X-2.1521 Y60.0901 I0.0000 J-3.0000
G03 X-3.0000 Y57.9800 I2.1525 J-2.0904
G01 Y5.0000
G01 Z-15.7500 F900
G03 X-0.2122 Y2.0075 I3.0000 J0.0000 F3000
G01 X53.0000 Y2.0000
G03 X55.1521 Y2.9099 I0.0000 J3.0000
G03 X56.0000 Y5.0200 I-2.1525 J2.0904
G01 Y58.0000
G03 X52.9800 Y61.0000 I-3.0001 J0.0000
G01 X0.0000
G03 X-2.1521 Y60.0901 I0.0000 J-3.0000
G03 X-3.0000 Y57.9800 I2.1525 J-2.0904
G01 Y5.0000
G01 Z-16.0000 F900
G03 X-0.2122 Y2.0075 I3.0000 J0.0000 F3000
G01 X53.0000 Y2.0000
G03 X55.1521 Y2.9099 I0.0000 J3.0000
G03 X56.0000 Y5.0200 I-2.1525 J2.0904
G01 Y58.0000
G03 X52.9800 Y61.0000 I-3.0001 J0.0000
G01 X0.0000
G03 X-2.1521 Y60.0901 I0.0000 J-3.0000
G03 X-3.0000 Y57.9800 I2.1525 J-2.0904
G01 Y5.0000
G01 Z-16.2500 F900
G03 X-0.2122 Y2.0075 I3.0000 J0.0000 F3000
G01 X53.0000 Y2.0000
G03 X55.1521 Y2.9099 I0.0000 J3.0000
G03 X56.0000 Y5.0200 I-2.1525 J2.0904
G01 Y58.0000
G03 X52.9800 Y61.0000 I-3.0001 J0.0000
G01 X0.0000
G03 X-2.1521 Y60.0901 I0.0000 J-3.0000
G03 X-3.0000 Y57.9800 I2.1525 J-2.0904
G01 Y5.0000
G01 Z-16.5000 F900
G03 X-0.2122 Y2.0075 I3.0000 J0.0000 F3000
G01 X53.0000 Y2.0000
G03 X55.1521 Y2.9099 I0.0000 J3.0000
G03 X56.0000 Y5.0200 I-2.1525 J2.0904
G01 Y58.0000
G03 X52.9800 Y61.0000 I-3.0001 J0.0000
G01 X0.0000
G03 X-2.1521 Y60.0901 I0.0000 J-3.0000
G03 X-3.0000 Y57.9800 I2.1525 J-2.0904
G01 Y5.0000
G01 Z-16.7500 F900
G03 X-0.2122 Y2.0075 I3.0000 J0.0000 F3000
G01 X53.0000 Y2.0000
G03 X55.1521 Y2.9099 I0.0000 J3.0000
G03 X56.0000 Y5.0200 I-2.1525 J2.0904
G01 Y58.0000
G03 X52.9800 Y61.0000 I-3.0001 J0.0000
G01 X0.0000
G03 X-2.1521 Y60.0901 I0.0000 J-3.0000
G03 X-3.0000 Y57.9800 I2.1525 J-2.0904
G01 Y5.0000
G01 Z-17.0000 F900
G03 X-0.2122 Y2.0075 I3.0000 J0.0000 F3000
G01 X53.0000 Y2.0000
G03 X55.1521 Y2.9099 I0.0000 J3.0000
G03 X56.0000 Y5.0200 I-2.1525 J2.0904
G01 Y58.0000
G03 X52.9800 Y61.0000 I-3.0001 J0.0000
G01 X0.0000
G03 X-2.1521 Y60.0901 I0.0000 J-3.0000
G03 X-3.0000 Y57.9800 I2.1525 J-2.0904
G01 Y5.0000
G01 Z-17.2500 F900
G03 X-0.2122 Y2.0075 I3.0000 J0.0000 F3000
G01 X53.0000 Y2.0000
G03 X55.1521 Y2.9099 I0.0000 J3.0000
G03 X56.0000 Y5.0200 I-2.1525 J2.0904
G01 Y58.0000
G03 X52.9800 Y61.0000 I-3.0001 J0.0000
G01 X0.0000
G03 X-2.1521 Y60.0901 I0.0000 J-3.0000
G03 X-3.0000 Y57.9800 I2.1525 J-2.0904
G01 Y5.0000
G01 Z-17.5000 F900
G03 X-0.2122 Y2.0075 I3.0000 J0.0000 F3000
G01 X53.0000 Y2.0000
G03 X55.1521 Y2.9099 I0.0000 J3.0000
G03 X56.0000 Y5.0200 I-2.1525 J2.0904
G01 Y58.0000
G03 X52.9800 Y61.0000 I-3.0001 J0.0000
G01 X0.0000
G03 X-2.1521 Y60.0901 I0.0000 J-3.0000
G03 X-3.0000 Y57.9800 I2.1525 J-2.0904
G01 Y5.0000
G01 Z-17.7500 F900
G03 X-0.2122 Y2.0075 I3.0000 J0.0000 F3000
G01 X53.0000 Y2.0000
G03 X55.1521 Y2.9099 I0.0000 J3.0000
G03 X56.0000 Y5.0200 I-2.1525 J2.0904
G01 Y58.0000
G03 X52.9800 Y61.0000 I-3.0001 J0.0000
G01 X0.0000
G03 X-2.1521 Y60.0901 I0.0000 J-3.0000
G03 X-3.0000 Y57.9800 I2.1525 J-2.0904
G01 Y5.0000
G01 Z-18.0000 F900
G03 X-0.2122 Y2.0075 I3.0000 J0.0000 F3000
G01 X53.0000 Y2.0000
G03 X55.1521 Y2.9099 I0.0000 J3.0000
G03 X56.0000 Y5.0200 I-2.1525 J2.0904
G01 Y58.0000
G03 X52.9800 Y61.0000 I-3.0001 J0.0000
G01 X0.0000
G03 X-2.1521 Y60.0901 I0.0000 J-3.0000
G03 X-3.0000 Y57.9800 I2.1525 J-2.0904
G01 Y5.0000
G01 Z-18.2500 F900
G03 X-0.2122 Y2.0075 I3.0000 J0.0000 F3000
G01 X53.0000 Y2.0000
G03 X55.1521 Y2.9099 I0.0000 J3.0000
G03 X56.0000 Y5.0200 I-2.1525 J2.0904
G01 Y58.0000
G03 X52.9800 Y61.0000 I-3.0001 J0.0000
G01 X0.0000
G03 X-2.1521 Y60.0901 I0.0000 J-3.0000
G03 X-3.0000 Y57.9800 I2.1525 J-2.0904
G01 Y5.0000
G01 Z-18.5000 F900
G03 X-0.2122 Y2.0075 I3.0000 J0.0000 F3000
G01 X53.0000 Y2.0000
G03 X55.1521 Y2.9099 I0.0000 J3.0000
G03 X56.0000 Y5.0200 I-2.1525 J2.0904
G01 Y58.0000
G03 X52.9800 Y61.0000 I-3.0001 J0.0000
G01 X0.0000
G03 X-2.1521 Y60.0901 I0.0000 J-3.0000
G03 X-3.0000 Y57.9800 I2.1525 J-2.0904
G01 Y5.0000
G01 Z-18.7500 F900
G03 X-0.2122 Y2.0075 I3.0000 J0.0000 F3000
G01 X53.0000 Y2.0000
G03 X55.1521 Y2.9099 I0.0000 J3.0000
G03 X56.0000 Y5.0200 I-2.1525 J2.0904
G01 Y58.0000
G03 X52.9800 Y61.0000 I-3.0001 J0.0000
G01 X0.0000
G03 X-2.1521 Y60.0901 I0.0000 J-3.0000
G03 X-3.0000 Y57.9800 I2.1525 J-2.0904
G01 Y5.0000
G01 Z-19.0000 F900
G03 X-0.2122 Y2.0075 I3.0000 J0.0000 F3000
G01 X53.0000 Y2.0000
G03 X55.1521 Y2.9099 I0.0000 J3.0000
G03 X56.0000 Y5.0200 I-2.1525 J2.0904
G01 Y58.0000
G03 X52.9800 Y61.0000 I-3.0001 J0.0000
G01 X0.0000
G03 X-2.1521 Y60.0901 I0.0000 J-3.0000
G03 X-3.0000 Y57.9800 I2.1525 J-2.0904
G01 Y5.0000
G01 Z-19.2500 F900
G03 X-0.2122 Y2.0075 I3.0000 J0.0000 F3000
G01 X53.0000 Y2.0000
G03 X55.1521 Y2.9099 I0.0000 J3.0000
G03 X56.0000 Y5.0200 I-2.1525 J2.0904
G01 Y58.0000
G03 X52.9800 Y61.0000 I-3.0001 J0.0000
G01 X0.0000
G03 X-2.1521 Y60.0901 I0.0000 J-3.0000
G03 X-3.0000 Y57.9800 I2.1525 J-2.0904
G01 Y5.0000
G01 Z-19.5000 F900
G03 X-0.2122 Y2.0075 I3.0000 J0.0000 F3000
G01 X53.0000 Y2.0000
G03 X55.1521 Y2.9099 I0.0000 J3.0000
G03 X56.0000 Y5.0200 I-2.1525 J2.0904
G01 Y58.0000
G03 X52.9800 Y61.0000 I-3.0001 J0.0000
G01 X0.0000
G03 X-2.1521 Y60.0901 I0.0000 J-3.0000
G03 X-3.0000 Y57.9800 I2.1525 J-2.0904
G01 Y5.0000
G01 Z-19.7500 F900
G03 X-0.2122 Y2.0075 I3.0000 J0.0000 F3000
G01 X53.0000 Y2.0000
G03 X55.1521 Y2.9099 I0.0000 J3.0000
G03 X56.0000 Y5.0200 I-2.1525 J2.0904
G01 Y58.0000
G03 X52.9800 Y61.0000 I-3.0001 J0.0000
G01 X0.0000
G03 X-2.1521 Y60.0901 I0.0000 J-3.0000
G03 X-3.0000 Y57.9800 I2.1525 J-2.0904
G01 Y5.0000
G01 Z-20.0000 F900
G03 X-0.2122 Y2.0075 I3.0000 J0.0000 F3000
G01 X53.0000 Y2.0000
G03 X55.1521 Y2.9099 I0.0000 J3.0000
G03 X56.0000 Y5.0200 I-2.1525 J2.0904
G01 Y58.0000
G03 X52.9800 Y61.0000 I-3.0001 J0.0000
G01 X0.0000
G03 X-2.1521 Y60.0901 I0.0000 J-3.0000
G03 X-3.0000 Y57.9800 I2.1525 J-2.0904
G01 Y5.0000
G01 Z-20.2500 F900
G03 X-0.2122 Y2.0075 I3.0000 J0.0000 F3000
G01 X53.0000 Y2.0000
G03 X55.1521 Y2.9099 I0.0000 J3.0000
G03 X56.0000 Y5.0200 I-2.1525 J2.0904
G01 Y58.0000
G03 X52.9800 Y61.0000 I-3.0001 J0.0000
G01 X0.0000
G03 X-2.1521 Y60.0901 I0.0000 J-3.0000
G03 X-3.0000 Y57.9800 I2.1525 J-2.0904
G01 Y5.0000
G01 Z-20.5000 F900
G03 X-0.2122 Y2.0075 I3.0000 J0.0000 F3000
G01 X53.0000 Y2.0000
G03 X55.1521 Y2.9099 I0.0000 J3.0000
G03 X56.0000 Y5.0200 I-2.1525 J2.0904
G01 Y58.0000
G03 X52.9800 Y61.0000 I-3.0001 J0.0000
G01 X0.0000
G03 X-2.1521 Y60.0901 I0.0000 J-3.0000
G03 X-3.0000 Y57.9800 I2.1525 J-2.0904
G01 Y5.0000
G01 Z-20.7500 F900
G03 X-0.2122 Y2.0075 I3.0000 J0.0000 F3000
G01 X53.0000 Y2.0000
G03 X55.1521 Y2.9099 I0.0000 J3.0000
G03 X56.0000 Y5.0200 I-2.1525 J2.0904
G01 Y58.0000
G03 X52.9800 Y61.0000 I-3.0001 J0.0000
G01 X0.0000
G03 X-2.1521 Y60.0901 I0.0000 J-3.0000
G03 X-3.0000 Y57.9800 I2.1525 J-2.0904
G01 Y5.0000
G01 Z-21.0000 F900
G03 X-0.2122 Y2.0075 I3.0000 J0.0000 F3000
G01 X53.0000 Y2.0000
G03 X55.1521 Y2.9099 I0.0000 J3.0000
G03 X56.0000 Y5.0200 I-2.1525 J2.0904
G01 Y58.0000
G03 X52.9800 Y61.0000 I-3.0001 J0.0000
G01 X0.0000
G03 X-2.1521 Y60.0901 I0.0000 J-3.0000
G03 X-3.0000 Y57.9800 I2.1525 J-2.0904
G01 Y5.0000
G01 Z-21.2500 F900
G03 X-0.2122 Y2.0075 I3.0000 J0.0000 F3000
G01 X53.0000 Y2.0000
G03 X55.1521 Y2.9099 I0.0000 J3.0000
G03 X56.0000 Y5.0200 I-2.1525 J2.0904
G01 Y58.0000
G03 X52.9800 Y61.0000 I-3.0001 J0.0000
G01 X0.0000
G03 X-2.1521 Y60.0901 I0.0000 J-3.0000
G03 X-3.0000 Y57.9800 I2.1525 J-2.0904
G01 Y5.0000
G01 Z-21.5000 F900
G03 X-0.2122 Y2.0075 I3.0000 J0.0000 F3000
G01 X53.0000 Y2.0000
G03 X55.1521 Y2.9099 I0.0000 J3.0000
G03 X56.0000 Y5.0200 I-2.1525 J2.0904
G01 Y58.0000
G03 X52.9800 Y61.0000 I-3.0001 J0.0000
G01 X0.0000
G03 X-2.1521 Y60.0901 I0.0000 J-3.0000
G03 X-3.0000 Y57.9800 I2.1525 J-2.0904
G01 Y5.0000
G01 Z-21.7500 F900
G03 X-0.2122 Y2.0075 I3.0000 J0.0000 F3000
G01 X53.0000 Y2.0000
G03 X55.1521 Y2.9099 I0.0000 J3.0000
G03 X56.0000 Y5.0200 I-2.1525 J2.0904
G01 Y58.0000
G03 X52.9800 Y61.0000 I-3.0001 J0.0000
G01 X0.0000
G03 X-2.1521 Y60.0901 I0.0000 J-3.0000
G03 X-3.0000 Y57.9800 I2.1525 J-2.0904
G01 Y5.0000
G01 Z-22.0000 F900
G03 X-0.2122 Y2.0075 I3.0000 J0.0000 F3000
G01 X53.0000 Y2.0000
G03 X55.1521 Y2.9099 I0.0000 J3.0000
G03 X56.0000 Y5.0200 I-2.1525 J2.0904
G01 Y58.0000
G03 X52.9800 Y61.0000 I-3.0001 J0.0000
G01 X0.0000
G03 X-2.1521 Y60.0901 I0.0000 J-3.0000
G03 X-3.0000 Y57.9800 I2.1525 J-2.0904
G01 Y5.0000
G01 Z-22.2500 F900
G03 X-0.2122 Y2.0075 I3.0000 J0.0000 F3000
G01 X53.0000 Y2.0000
G03 X55.1521 Y2.9099 I0.0000 J3.0000
G03 X56.0000 Y5.0200 I-2.1525 J2.0904
G01 Y58.0000
G03 X52.9800 Y61.0000 I-3.0001 J0.0000
G01 X0.0000
G03 X-2.1521 Y60.0901 I0.0000 J-3.0000
G03 X-3.0000 Y57.9800 I2.1525 J-2.0904
G01 Y5.0000
G01 Z-22.5000 F900
G03 X-0.2122 Y2.0075 I3.0000 J0.0000 F3000
G01 X53.0000 Y2.0000
G03 X55.1521 Y2.9099 I0.0000 J3.0000
G03 X56.0000 Y5.0200 I-2.1525 J2.0904
G01 Y58.0000
G03 X52.9800 Y61.0000 I-3.0001 J0.0000
G01 X0.0000
G03 X-2.1521 Y60.0901 I0.0000 J-3.0000
G03 X-3.0000 Y57.9800 I2.1525 J-2.0904
G01 Y5.0000
G01 Z-22.7500 F900
G03 X-0.2122 Y2.0075 I3.0000 J0.0000 F3000
G01 X53.0000 Y2.0000
G03 X55.1521 Y2.9099 I0.0000 J3.0000
G03 X56.0000 Y5.0200 I-2.1525 J2.0904
G01 Y58.0000
G03 X52.9800 Y61.0000 I-3.0001 J0.0000
G01 X0.0000
G03 X-2.1521 Y60.0901 I0.0000 J-3.0000
G03 X-3.0000 Y57.9800 I2.1525 J-2.0904
G01 Y5.0000
G01 Z-23.0000 F900
G03 X-0.2122 Y2.0075 I3.0000 J0.0000 F3000
G01 X53.0000 Y2.0000
G03 X55.1521 Y2.9099 I0.0000 J3.0000
G03 X56.0000 Y5.0200 I-2.1525 J2.0904
G01 Y58.0000
G03 X52.9800 Y61.0000 I-3.0001 J0.0000
G01 X0.0000
G03 X-2.1521 Y60.0901 I0.0000 J-3.0000
G03 X-3.0000 Y57.9800 I2.1525 J-2.0904
G01 Y5.0000
G01 Z-23.2500 F900
G03 X-0.2122 Y2.0075 I3.0000 J0.0000 F3000
G01 X53.0000 Y2.0000
G03 X55.1521 Y2.9099 I0.0000 J3.0000
G03 X56.0000 Y5.0200 I-2.1525 J2.0904
G01 Y58.0000
G03 X52.9800 Y61.0000 I-3.0001 J0.0000
G01 X0.0000
G03 X-2.1521 Y60.0901 I0.0000 J-3.0000
G03 X-3.0000 Y57.9800 I2.1525 J-2.0904
G01 Y5.0000
G01 Z-23.5000 F900
G03 X-0.2122 Y2.0075 I3.0000 J0.0000 F3000
G01 X53.0000 Y2.0000
G03 X55.1521 Y2.9099 I0.0000 J3.0000
G03 X56.0000 Y5.0200 I-2.1525 J2.0904
G01 Y58.0000
G03 X52.9800 Y61.0000 I-3.0001 J0.0000
G01 X0.0000
G03 X-2.1521 Y60.0901 I0.0000 J-3.0000
G03 X-3.0000 Y57.9800 I2.1525 J-2.0904
G01 Y5.0000
G01 Z-23.7500 F900
G03 X-0.2122 Y2.0075 I3.0000 J0.0000 F3000
G01 X53.0000 Y2.0000
G03 X55.1521 Y2.9099 I0.0000 J3.0000
G03 X56.0000 Y5.0200 I-2.1525 J2.0904
G01 Y58.0000
G03 X52.9800 Y61.0000 I-3.0001 J0.0000
G01 X0.0000
G03 X-2.1521 Y60.0901 I0.0000 J-3.0000
G03 X-3.0000 Y57.9800 I2.1525 J-2.0904
G01 Y5.0000
G01 Z-24.0000 F900
G03 X-0.2122 Y2.0075 I3.0000 J0.0000 F3000
G01 X53.0000 Y2.0000
G03 X55.1521 Y2.9099 I0.0000 J3.0000
G03 X56.0000 Y5.0200 I-2.1525 J2.0904
G01 Y58.0000
G03 X52.9800 Y61.0000 I-3.0001 J0.0000
G01 X0.0000
G03 X-2.1521 Y60.0901 I0.0000 J-3.0000
G03 X-3.0000 Y57.9800 I2.1525 J-2.0904
G01 Y5.0000
G01 Z-24.2500 F900
G03 X-0.2122 Y2.0075 I3.0000 J0.0000 F3000
G01 X53.0000 Y2.0000
G03 X55.1521 Y2.9099 I0.0000 J3.0000
G03 X56.0000 Y5.0200 I-2.1525 J2.0904
G01 Y58.0000
G03 X52.9800 Y61.0000 I-3.0001 J0.0000
G01 X0.0000
G03 X-2.1521 Y60.0901 I0.0000 J-3.0000
G03 X-3.0000 Y57.9800 I2.1525 J-2.0904
G01 Y5.0000
G01 Z-24.5000 F900
G03 X-0.2122 Y2.0075 I3.0000 J0.0000 F3000
G01 X53.0000 Y2.0000
G03 X55.1521 Y2.9099 I0.0000 J3.0000
G03 X56.0000 Y5.0200 I-2.1525 J2.0904
G01 Y58.0000
G03 X52.9800 Y61.0000 I-3.0001 J0.0000
G01 X0.0000
G03 X-2.1521 Y60.0901 I0.0000 J-3.0000
G03 X-3.0000 Y57.9800 I2.1525 J-2.0904
G01 Y5.0000
G01 Z-24.7500 F900
G03 X-0.2122 Y2.0075 I3.0000 J0.0000 F3000
G01 X53.0000 Y2.0000
G03 X55.1521 Y2.9099 I0.0000 J3.0000
G03 X56.0000 Y5.0200 I-2.1525 J2.0904
G01 Y58.0000
G03 X52.9800 Y61.0000 I-3.0001 J0.0000
G01 X0.0000
G03 X-2.1521 Y60.0901 I0.0000 J-3.0000
G03 X-3.0000 Y57.9800 I2.1525 J-2.0904
G01 Y5.0000
G01 Z-25.0000 F900
G03 X-0.2122 Y2.0075 I3.0000 J0.0000 F3000
G01 X53.0000 Y2.0000
G03 X55.1521 Y2.9099 I0.0000 J3.0000
G03 X56.0000 Y5.0200 I-2.1525 J2.0904
G01 Y58.0000
G03 X52.9800 Y61.0000 I-3.0001 J0.0000
G01 X0.0000
G03 X-2.1521 Y60.0901 I0.0000 J-3.0000
G03 X-3.0000 Y57.9800 I2.1525 J-2.0904
G01 Y5.0000
G00 Z5.0000


(No. 2: Pocketing: ?????????? ?????????? ????? 1)
G00 X9.5000 Y4.5000 Z5.0000
G00 Z0.5000
G01 Z-0.2500 F900
G01 X3.6000 F3000
G01 Y9.9000
G01 X9.5000
G01 Y15.3000
G01 X3.6000
G01 Y20.7000
G01 X9.5000
G01 Y26.1000
G01 X3.6000
G01 Y31.5000
G01 X9.5000
G01 Y36.9000
G01 X3.6000
G01 Y42.3000
G01 X9.5000
G01 Y47.7000
G01 X3.6000
G01 Y53.1000
G01 X9.5000
G01 Y58.5000
G01 X3.6000
G00 Z5.0000
G00 X9.5000 Y4.5000
G00 Z0.2500
G01 Z-0.5000 F900
G01 X3.6000 F3000
G01 Y9.9000
G01 X9.5000
G01 Y15.3000
G01 X3.6000
G01 Y20.7000
G01 X9.5000
G01 Y26.1000
G01 X3.6000
G01 Y31.5000
G01 X9.5000
G01 Y36.9000
G01 X3.6000
G01 Y42.3000
G01 X9.5000
G01 Y47.7000
G01 X3.6000
G01 Y53.1000
G01 X9.5000
G01 Y58.5000
G01 X3.6000
G00 Z5.0000
G00 X9.5000 Y4.5000
G00 Z0.0000
G01 Z-0.7500 F900
G01 X3.6000 F3000
G01 Y9.9000
G01 X9.5000
G01 Y15.3000
G01 X3.6000
G01 Y20.7000
G01 X9.5000
G01 Y26.1000
G01 X3.6000
G01 Y31.5000
G01 X9.5000
G01 Y36.9000
G01 X3.6000
G01 Y42.3000
G01 X9.5000
G01 Y47.7000
G01 X3.6000
G01 Y53.1000
G01 X9.5000
G01 Y58.5000
G01 X3.6000
G00 Z5.0000
G00 X9.5000 Y4.5000
G00 Z-0.2500
G01 Z-1.0000 F900
G01 X3.6000 F3000
G01 Y9.9000
G01 X9.5000
G01 Y15.3000
G01 X3.6000
G01 Y20.7000
G01 X9.5000
G01 Y26.1000
G01 X3.6000
G01 Y31.5000
G01 X9.5000
G01 Y36.9000
G01 X3.6000
G01 Y42.3000
G01 X9.5000
G01 Y47.7000
G01 X3.6000
G01 Y53.1000
G01 X9.5000
G01 Y58.5000
G01 X3.6000
G00 Z5.0000
G00 X9.5000 Y4.5000
G00 Z-0.5000
G01 Z-1.2500 F900
G01 X3.6000 F3000
G01 Y9.9000
G01 X9.5000
G01 Y15.3000
G01 X3.6000
G01 Y20.7000
G01 X9.5000
G01 Y26.1000
G01 X3.6000
G01 Y31.5000
G01 X9.5000
G01 Y36.9000
G01 X3.6000
G01 Y42.3000
G01 X9.5000
G01 Y47.7000
G01 X3.6000
G01 Y53.1000
G01 X9.5000
G01 Y58.5000
G01 X3.6000
G00 Z5.0000
G00 X9.5000 Y4.5000
G00 Z-0.7500
G01 Z-1.5000 F900
G01 X3.6000 F3000
G01 Y9.9000
G01 X9.5000
G01 Y15.3000
G01 X3.6000
G01 Y20.7000
G01 X9.5000
G01 Y26.1000
G01 X3.6000
G01 Y31.5000
G01 X9.5000
G01 Y36.9000
G01 X3.6000
G01 Y42.3000
G01 X9.5000
G01 Y47.7000
G01 X3.6000
G01 Y53.1000
G01 X9.5000
G01 Y58.5000
G01 X3.6000
G00 Z5.0000
G00 X9.5000 Y4.5000
G00 Z-1.0000
G01 Z-1.7500 F900
G01 X3.6000 F3000
G01 Y9.9000
G01 X9.5000
G01 Y15.3000
G01 X3.6000
G01 Y20.7000
G01 X9.5000
G01 Y26.1000
G01 X3.6000
G01 Y31.5000
G01 X9.5000
G01 Y36.9000
G01 X3.6000
G01 Y42.3000
G01 X9.5000
G01 Y47.7000
G01 X3.6000
G01 Y53.1000
G01 X9.5000
G01 Y58.5000
G01 X3.6000
G00 Z5.0000
G00 X9.5000 Y4.5000
G00 Z-1.2500
G01 Z-2.0000 F900
G01 X3.6000 F3000
G01 Y9.9000
G01 X9.5000
G01 Y15.3000
G01 X3.6000
G01 Y20.7000
G01 X9.5000
G01 Y26.1000
G01 X3.6000
G01 Y31.5000
G01 X9.5000
G01 Y36.9000
G01 X3.6000
G01 Y42.3000
G01 X9.5000
G01 Y47.7000
G01 X3.6000
G01 Y53.1000
G01 X9.5000
G01 Y58.5000
G01 X3.6000
G00 Z5.0000
G00 X9.5000 Y4.5000
G00 Z-1.5000
G01 Z-2.2500 F900
G01 X3.6000 F3000
G01 Y9.9000
G01 X9.5000
G01 Y15.3000
G01 X3.6000
G01 Y20.7000
G01 X9.5000
G01 Y26.1000
G01 X3.6000
G01 Y31.5000
G01 X9.5000
G01 Y36.9000
G01 X3.6000
G01 Y42.3000
G01 X9.5000
G01 Y47.7000
G01 X3.6000
G01 Y53.1000
G01 X9.5000
G01 Y58.5000
G01 X3.6000
G00 Z5.0000
G00 X9.5000 Y4.5000
G00 Z-1.7500
G01 Z-2.5000 F900
G01 X3.6000 F3000
G01 Y9.9000
G01 X9.5000
G01 Y15.3000
G01 X3.6000
G01 Y20.7000
G01 X9.5000
G01 Y26.1000
G01 X3.6000
G01 Y31.5000
G01 X9.5000
G01 Y36.9000
G01 X3.6000
G01 Y42.3000
G01 X9.5000
G01 Y47.7000
G01 X3.6000
G01 Y53.1000
G01 X9.5000
G01 Y58.5000
G01 X3.6000
G00 Z5.0000
G00 X9.5000 Y4.5000
G00 Z-2.0000
G01 Z-2.7500 F900
G01 X3.6000 F3000
G01 Y9.9000
G01 X9.5000
G01 Y15.3000
G01 X3.6000
G01 Y20.7000
G01 X9.5000
G01 Y26.1000
G01 X3.6000
G01 Y31.5000
G01 X9.5000
G01 Y36.9000
G01 X3.6000
G01 Y42.3000
G01 X9.5000
G01 Y47.7000
G01 X3.6000
G01 Y53.1000
G01 X9.5000
G01 Y58.5000
G01 X3.6000
G00 Z5.0000
G00 X9.5000 Y4.5000
G00 Z-2.2500
G01 Z-3.0000 F900
G01 X3.6000 F3000
G01 Y9.9000
G01 X9.5000
G01 Y15.3000
G01 X3.6000
G01 Y20.7000
G01 X9.5000
G01 Y26.1000
G01 X3.6000
G01 Y31.5000
G01 X9.5000
G01 Y36.9000
G01 X3.6000
G01 Y42.3000
G01 X9.5000
G01 Y47.7000
G01 X3.6000
G01 Y53.1000
G01 X9.5000
G01 Y58.5000
G01 X3.6000
G00 Z5.0000
G00 X9.5000 Y4.5000
G00 Z-2.5000
G01 Z-3.2500 F900
G01 X3.6000 F3000
G01 Y9.9000
G01 X9.5000
G01 Y15.3000
G01 X3.6000
G01 Y20.7000
G01 X9.5000
G01 Y26.1000
G01 X3.6000
G01 Y31.5000
G01 X9.5000
G01 Y36.9000
G01 X3.6000
G01 Y42.3000
G01 X9.5000
G01 Y47.7000
G01 X3.6000
G01 Y53.1000
G01 X9.5000
G01 Y58.5000
G01 X3.6000
G00 Z5.0000
G00 X9.5000 Y4.5000
G00 Z-2.7500
G01 Z-3.5000 F900
G01 X3.6000 F3000
G01 Y9.9000
G01 X9.5000
G01 Y15.3000
G01 X3.6000
G01 Y20.7000
G01 X9.5000
G01 Y26.1000
G01 X3.6000
G01 Y31.5000
G01 X9.5000
G01 Y36.9000
G01 X3.6000
G01 Y42.3000
G01 X9.5000
G01 Y47.7000
G01 X3.6000
G01 Y53.1000
G01 X9.5000
G01 Y58.5000
G01 X3.6000
G00 Z5.0000
G00 X9.5000 Y4.5000
G00 Z-3.0000
G01 Z-3.7500 F900
G01 X3.6000 F3000
G01 Y9.9000
G01 X9.5000
G01 Y15.3000
G01 X3.6000
G01 Y20.7000
G01 X9.5000
G01 Y26.1000
G01 X3.6000
G01 Y31.5000
G01 X9.5000
G01 Y36.9000
G01 X3.6000
G01 Y42.3000
G01 X9.5000
G01 Y47.7000
G01 X3.6000
G01 Y53.1000
G01 X9.5000
G01 Y58.5000
G01 X3.6000
G00 Z5.0000
G00 X9.5000 Y4.5000
G00 Z-3.2500
G01 Z-4.0000 F900
G01 X3.6000 F3000
G01 Y9.9000
G01 X9.5000
G01 Y15.3000
G01 X3.6000
G01 Y20.7000
G01 X9.5000
G01 Y26.1000
G01 X3.6000
G01 Y31.5000
G01 X9.5000
G01 Y36.9000
G01 X3.6000
G01 Y42.3000
G01 X9.5000
G01 Y47.7000
G01 X3.6000
G01 Y53.1000
G01 X9.5000
G01 Y58.5000
G01 X3.6000
G00 Z5.0000
G00 X9.5000 Y4.5000
G00 Z-3.5000
G01 Z-4.2500 F900
G01 X3.6000 F3000
G01 Y9.9000
G01 X9.5000
G01 Y15.3000
G01 X3.6000
G01 Y20.7000
G01 X9.5000
G01 Y26.1000
G01 X3.6000
G01 Y31.5000
G01 X9.5000
G01 Y36.9000
G01 X3.6000
G01 Y42.3000
G01 X9.5000
G01 Y47.7000
G01 X3.6000
G01 Y53.1000
G01 X9.5000
G01 Y58.5000
G01 X3.6000
G00 Z5.0000
G00 X9.5000 Y4.5000
G00 Z-3.7500
G01 Z-4.5000 F900
G01 X3.6000 F3000
G01 Y9.9000
G01 X9.5000
G01 Y15.3000
G01 X3.6000
G01 Y20.7000
G01 X9.5000
G01 Y26.1000
G01 X3.6000
G01 Y31.5000
G01 X9.5000
G01 Y36.9000
G01 X3.6000
G01 Y42.3000
G01 X9.5000
G01 Y47.7000
G01 X3.6000
G01 Y53.1000
G01 X9.5000
G01 Y58.5000
G01 X3.6000
G00 Z5.0000
G00 X9.5000 Y4.5000
G00 Z-4.0000
G01 Z-4.7500 F900
G01 X3.6000 F3000
G01 Y9.9000
G01 X9.5000
G01 Y15.3000
G01 X3.6000
G01 Y20.7000
G01 X9.5000
G01 Y26.1000
G01 X3.6000
G01 Y31.5000
G01 X9.5000
G01 Y36.9000
G01 X3.6000
G01 Y42.3000
G01 X9.5000
G01 Y47.7000
G01 X3.6000
G01 Y53.1000
G01 X9.5000
G01 Y58.5000
G01 X3.6000
G00 Z5.0000
G00 X9.5000 Y4.5000
G00 Z-4.2500
G01 Z-5.0000 F900
G01 X3.6000 F3000
G01 Y9.9000
G01 X9.5000
G01 Y15.3000
G01 X3.6000
G01 Y20.7000
G01 X9.5000
G01 Y26.1000
G01 X3.6000
G01 Y31.5000
G01 X9.5000
G01 Y36.9000
G01 X3.6000
G01 Y42.3000
G01 X9.5000
G01 Y47.7000
G01 X3.6000
G01 Y53.1000
G01 X9.5000
G01 Y58.5000
G01 X3.6000
G00 Z5.0000
G00 X9.5000 Y4.5000
G00 Z-4.5000
G01 Z-5.2500 F900
G01 X3.6000 F3000
G01 Y9.9000
G01 X9.5000
G01 Y15.3000
G01 X3.6000
G01 Y20.7000
G01 X9.5000
G01 Y26.1000
G01 X3.6000
G01 Y31.5000
G01 X9.5000
G01 Y36.9000
G01 X3.6000
G01 Y42.3000
G01 X9.5000
G01 Y47.7000
G01 X3.6000
G01 Y53.1000
G01 X9.5000
G01 Y58.5000
G01 X3.6000
G00 Z5.0000
G00 X9.5000 Y4.5000
G00 Z-4.7500
G01 Z-5.5000 F900
G01 X3.6000 F3000
G01 Y9.9000
G01 X9.5000
G01 Y15.3000
G01 X3.6000
G01 Y20.7000
G01 X9.5000
G01 Y26.1000
G01 X3.6000
G01 Y31.5000
G01 X9.5000
G01 Y36.9000
G01 X3.6000
G01 Y42.3000
G01 X9.5000
G01 Y47.7000
G01 X3.6000
G01 Y53.1000
G01 X9.5000
G01 Y58.5000
G01 X3.6000
G00 Z5.0000
G00 X9.5000 Y4.5000
G00 Z-5.0000
G01 Z-5.7500 F900
G01 X3.6000 F3000
G01 Y9.9000
G01 X9.5000
G01 Y15.3000
G01 X3.6000
G01 Y20.7000
G01 X9.5000
G01 Y26.1000
G01 X3.6000
G01 Y31.5000
G01 X9.5000
G01 Y36.9000
G01 X3.6000
G01 Y42.3000
G01 X9.5000
G01 Y47.7000
G01 X3.6000
G01 Y53.1000
G01 X9.5000
G01 Y58.5000
G01 X3.6000
G00 Z5.0000
G00 X9.5000 Y4.5000
G00 Z-5.2500
G01 Z-6.0000 F900
G01 X3.6000 F3000
G01 Y9.9000
G01 X9.5000
G01 Y15.3000
G01 X3.6000
G01 Y20.7000
G01 X9.5000
G01 Y26.1000
G01 X3.6000
G01 Y31.5000
G01 X9.5000
G01 Y36.9000
G01 X3.6000
G01 Y42.3000
G01 X9.5000
G01 Y47.7000
G01 X3.6000
G01 Y53.1000
G01 X9.5000
G01 Y58.5000
G01 X3.6000
G00 Z5.0000
G00 X9.5000 Y4.5000
G00 Z-5.5000
G01 Z-6.2500 F900
G01 X3.6000 F3000
G01 Y9.9000
G01 X9.5000
G01 Y15.3000
G01 X3.6000
G01 Y20.7000
G01 X9.5000
G01 Y26.1000
G01 X3.6000
G01 Y31.5000
G01 X9.5000
G01 Y36.9000
G01 X3.6000
G01 Y42.3000
G01 X9.5000
G01 Y47.7000
G01 X3.6000
G01 Y53.1000
G01 X9.5000
G01 Y58.5000
G01 X3.6000
G00 Z5.0000
G00 X9.5000 Y4.5000
G00 Z-5.7500
G01 Z-6.5000 F900
G01 X3.6000 F3000
G01 Y9.9000
G01 X9.5000
G01 Y15.3000
G01 X3.6000
G01 Y20.7000
G01 X9.5000
G01 Y26.1000
G01 X3.6000
G01 Y31.5000
G01 X9.5000
G01 Y36.9000
G01 X3.6000
G01 Y42.3000
G01 X9.5000
G01 Y47.7000
G01 X3.6000
G01 Y53.1000
G01 X9.5000
G01 Y58.5000
G01 X3.6000
G00 Z5.0000
G00 X9.5000 Y4.5000
G00 Z-6.0000
G01 Z-6.7500 F900
G01 X3.6000 F3000
G01 Y9.9000
G01 X9.5000
G01 Y15.3000
G01 X3.6000
G01 Y20.7000
G01 X9.5000
G01 Y26.1000
G01 X3.6000
G01 Y31.5000
G01 X9.5000
G01 Y36.9000
G01 X3.6000
G01 Y42.3000
G01 X9.5000
G01 Y47.7000
G01 X3.6000
G01 Y53.1000
G01 X9.5000
G01 Y58.5000
G01 X3.6000
G00 Z5.0000
G00 X9.5000 Y4.5000
G00 Z-6.2500
G01 Z-7.0000 F900
G01 X3.6000 F3000
G01 Y9.9000
G01 X9.5000
G01 Y15.3000
G01 X3.6000
G01 Y20.7000
G01 X9.5000
G01 Y26.1000
G01 X3.6000
G01 Y31.5000
G01 X9.5000
G01 Y36.9000
G01 X3.6000
G01 Y42.3000
G01 X9.5000
G01 Y47.7000
G01 X3.6000
G01 Y53.1000
G01 X9.5000
G01 Y58.5000
G01 X3.6000
G00 Z5.0000
G00 X9.5000 Y4.5000
G00 Z-6.5000
G01 Z-7.2500 F900
G01 X3.6000 F3000
G01 Y9.9000
G01 X9.5000
G01 Y15.3000
G01 X3.6000
G01 Y20.7000
G01 X9.5000
G01 Y26.1000
G01 X3.6000
G01 Y31.5000
G01 X9.5000
G01 Y36.9000
G01 X3.6000
G01 Y42.3000
G01 X9.5000
G01 Y47.7000
G01 X3.6000
G01 Y53.1000
G01 X9.5000
G01 Y58.5000
G01 X3.6000
G00 Z5.0000
G00 X9.5000 Y4.5000
G00 Z-6.7500
G01 Z-7.5000 F900
G01 X3.6000 F3000
G01 Y9.9000
G01 X9.5000
G01 Y15.3000
G01 X3.6000
G01 Y20.7000
G01 X9.5000
G01 Y26.1000
G01 X3.6000
G01 Y31.5000
G01 X9.5000
G01 Y36.9000
G01 X3.6000
G01 Y42.3000
G01 X9.5000
G01 Y47.7000
G01 X3.6000
G01 Y53.1000
G01 X9.5000
G01 Y58.5000
G01 X3.6000
G00 Z5.0000
G00 X9.5000 Y4.5000
G00 Z-7.0000
G01 Z-7.7500 F900
G01 X3.6000 F3000
G01 Y9.9000
G01 X9.5000
G01 Y15.3000
G01 X3.6000
G01 Y20.7000
G01 X9.5000
G01 Y26.1000
G01 X3.6000
G01 Y31.5000
G01 X9.5000
G01 Y36.9000
G01 X3.6000
G01 Y42.3000
G01 X9.5000
G01 Y47.7000
G01 X3.6000
G01 Y53.1000
G01 X9.5000
G01 Y58.5000
G01 X3.6000
G00 Z5.0000
G00 X9.5000 Y4.5000
G00 Z-7.2500
G01 Z-8.0000 F900
G01 X3.6000 F3000
G01 Y9.9000
G01 X9.5000
G01 Y15.3000
G01 X3.6000
G01 Y20.7000
G01 X9.5000
G01 Y26.1000
G01 X3.6000
G01 Y31.5000
G01 X9.5000
G01 Y36.9000
G01 X3.6000
G01 Y42.3000
G01 X9.5000
G01 Y47.7000
G01 X3.6000
G01 Y53.1000
G01 X9.5000
G01 Y58.5000
G01 X3.6000
G00 Z5.0000
G00 X9.5000 Y4.5000
G00 Z-7.5000
G01 Z-8.2500 F900
G01 X3.6000 F3000
G01 Y9.9000
G01 X9.5000
G01 Y15.3000
G01 X3.6000
G01 Y20.7000
G01 X9.5000
G01 Y26.1000
G01 X3.6000
G01 Y31.5000
G01 X9.5000
G01 Y36.9000
G01 X3.6000
G01 Y42.3000
G01 X9.5000
G01 Y47.7000
G01 X3.6000
G01 Y53.1000
G01 X9.5000
G01 Y58.5000
G01 X3.6000
G00 Z5.0000
G00 X9.5000 Y4.5000
G00 Z-7.7500
G01 Z-8.5000 F900
G01 X3.6000 F3000
G01 Y9.9000
G01 X9.5000
G01 Y15.3000
G01 X3.6000
G01 Y20.7000
G01 X9.5000
G01 Y26.1000
G01 X3.6000
G01 Y31.5000
G01 X9.5000
G01 Y36.9000
G01 X3.6000
G01 Y42.3000
G01 X9.5000
G01 Y47.7000
G01 X3.6000
G01 Y53.1000
G01 X9.5000
G01 Y58.5000
G01 X3.6000
G00 Z5.0000
G00 X9.5000 Y4.5000
G00 Z-8.0000
G01 Z-8.7500 F900
G01 X3.6000 F3000
G01 Y9.9000
G01 X9.5000
G01 Y15.3000
G01 X3.6000
G01 Y20.7000
G01 X9.5000
G01 Y26.1000
G01 X3.6000
G01 Y31.5000
G01 X9.5000
G01 Y36.9000
G01 X3.6000
G01 Y42.3000
G01 X9.5000
G01 Y47.7000
G01 X3.6000
G01 Y53.1000
G01 X9.5000
G01 Y58.5000
G01 X3.6000
G00 Z5.0000
G00 X9.5000 Y4.5000
G00 Z-8.2500
G01 Z-9.0000 F900
G01 X3.6000 F3000
G01 Y9.9000
G01 X9.5000
G01 Y15.3000
G01 X3.6000
G01 Y20.7000
G01 X9.5000
G01 Y26.1000
G01 X3.6000
G01 Y31.5000
G01 X9.5000
G01 Y36.9000
G01 X3.6000
G01 Y42.3000
G01 X9.5000
G01 Y47.7000
G01 X3.6000
G01 Y53.1000
G01 X9.5000
G01 Y58.5000
G01 X3.6000
G00 Z5.0000
G00 X9.5000 Y4.5000
G00 Z-8.5000
G01 Z-9.2500 F900
G01 X3.6000 F3000
G01 Y9.9000
G01 X9.5000
G01 Y15.3000
G01 X3.6000
G01 Y20.7000
G01 X9.5000
G01 Y26.1000
G01 X3.6000
G01 Y31.5000
G01 X9.5000
G01 Y36.9000
G01 X3.6000
G01 Y42.3000
G01 X9.5000
G01 Y47.7000
G01 X3.6000
G01 Y53.1000
G01 X9.5000
G01 Y58.5000
G01 X3.6000
G00 Z5.0000
G00 X9.5000 Y4.5000
G00 Z-8.7500
G01 Z-9.5000 F900
G01 X3.6000 F3000
G01 Y9.9000
G01 X9.5000
G01 Y15.3000
G01 X3.6000
G01 Y20.7000
G01 X9.5000
G01 Y26.1000
G01 X3.6000
G01 Y31.5000
G01 X9.5000
G01 Y36.9000
G01 X3.6000
G01 Y42.3000
G01 X9.5000
G01 Y47.7000
G01 X3.6000
G01 Y53.1000
G01 X9.5000
G01 Y58.5000
G01 X3.6000
G00 Z5.0000
G00 X9.5000 Y4.5000
G00 Z-9.0000
G01 Z-9.7500 F900
G01 X3.6000 F3000
G01 Y9.9000
G01 X9.5000
G01 Y15.3000
G01 X3.6000
G01 Y20.7000
G01 X9.5000
G01 Y26.1000
G01 X3.6000
G01 Y31.5000
G01 X9.5000
G01 Y36.9000
G01 X3.6000
G01 Y42.3000
G01 X9.5000
G01 Y47.7000
G01 X3.6000
G01 Y53.1000
G01 X9.5000
G01 Y58.5000
G01 X3.6000
G00 Z5.0000
G00 X9.5000 Y4.5000
G00 Z-9.2500
G01 Z-10.0000 F900
G01 X3.6000 F3000
G01 Y9.9000
G01 X9.5000
G01 Y15.3000
G01 X3.6000
G01 Y20.7000
G01 X9.5000
G01 Y26.1000
G01 X3.6000
G01 Y31.5000
G01 X9.5000
G01 Y36.9000
G01 X3.6000
G01 Y42.3000
G01 X9.5000
G01 Y47.7000
G01 X3.6000
G01 Y53.1000
G01 X9.5000
G01 Y58.5000
G01 X3.6000
G00 Z5.0000
G00 X9.5000 Y4.5000
G00 Z-9.5000
G01 Z-10.2500 F900
G01 X3.6000 F3000
G01 Y9.9000
G01 X9.5000
G01 Y15.3000
G01 X3.6000
G01 Y20.7000
G01 X9.5000
G01 Y26.1000
G01 X3.6000
G01 Y31.5000
G01 X9.5000
G01 Y36.9000
G01 X3.6000
G01 Y42.3000
G01 X9.5000
G01 Y47.7000
G01 X3.6000
G01 Y53.1000
G01 X9.5000
G01 Y58.5000
G01 X3.6000
G00 Z5.0000
G00 X9.5000 Y4.5000
G00 Z-9.7500
G01 Z-10.5000 F900
G01 X3.6000 F3000
G01 Y9.9000
G01 X9.5000
G01 Y15.3000
G01 X3.6000
G01 Y20.7000
G01 X9.5000
G01 Y26.1000
G01 X3.6000
G01 Y31.5000
G01 X9.5000
G01 Y36.9000
G01 X3.6000
G01 Y42.3000
G01 X9.5000
G01 Y47.7000
G01 X3.6000
G01 Y53.1000
G01 X9.5000
G01 Y58.5000
G01 X3.6000
G00 Z5.0000
G00 X9.5000 Y4.5000
G00 Z-10.0000
G01 Z-10.7500 F900
G01 X3.6000 F3000
G01 Y9.9000
G01 X9.5000
G01 Y15.3000
G01 X3.6000
G01 Y20.7000
G01 X9.5000
G01 Y26.1000
G01 X3.6000
G01 Y31.5000
G01 X9.5000
G01 Y36.9000
G01 X3.6000
G01 Y42.3000
G01 X9.5000
G01 Y47.7000
G01 X3.6000
G01 Y53.1000
G01 X9.5000
G01 Y58.5000
G01 X3.6000
G00 Z5.0000
G00 X9.5000 Y4.5000
G00 Z-10.2500
G01 Z-11.0000 F900
G01 X3.6000 F3000
G01 Y9.9000
G01 X9.5000
G01 Y15.3000
G01 X3.6000
G01 Y20.7000
G01 X9.5000
G01 Y26.1000
G01 X3.6000
G01 Y31.5000
G01 X9.5000
G01 Y36.9000
G01 X3.6000
G01 Y42.3000
G01 X9.5000
G01 Y47.7000
G01 X3.6000
G01 Y53.1000
G01 X9.5000
G01 Y58.5000
G01 X3.6000
G00 Z5.0000
G00 X9.5000 Y4.5000
G00 Z-10.5000
G01 Z-11.2500 F900
G01 X3.6000 F3000
G01 Y9.9000
G01 X9.5000
G01 Y15.3000
G01 X3.6000
G01 Y20.7000
G01 X9.5000
G01 Y26.1000
G01 X3.6000
G01 Y31.5000
G01 X9.5000
G01 Y36.9000
G01 X3.6000
G01 Y42.3000
G01 X9.5000
G01 Y47.7000
G01 X3.6000
G01 Y53.1000
G01 X9.5000
G01 Y58.5000
G01 X3.6000
G00 Z5.0000
G00 X9.5000 Y4.5000
G00 Z-10.7500
G01 Z-11.5000 F900
G01 X3.6000 F3000
G01 Y9.9000
G01 X9.5000
G01 Y15.3000
G01 X3.6000
G01 Y20.7000
G01 X9.5000
G01 Y26.1000
G01 X3.6000
G01 Y31.5000
G01 X9.5000
G01 Y36.9000
G01 X3.6000
G01 Y42.3000
G01 X9.5000
G01 Y47.7000
G01 X3.6000
G01 Y53.1000
G01 X9.5000
G01 Y58.5000
G01 X3.6000
G00 Z5.0000
G00 X9.5000 Y4.5000
G00 Z-11.0000
G01 Z-11.7500 F900
G01 X3.6000 F3000
G01 Y9.9000
G01 X9.5000
G01 Y15.3000
G01 X3.6000
G01 Y20.7000
G01 X9.5000
G01 Y26.1000
G01 X3.6000
G01 Y31.5000
G01 X9.5000
G01 Y36.9000
G01 X3.6000
G01 Y42.3000
G01 X9.5000
G01 Y47.7000
G01 X3.6000
G01 Y53.1000
G01 X9.5000
G01 Y58.5000
G01 X3.6000
G00 Z5.0000
G00 X9.5000 Y4.5000
G00 Z-11.2500
G01 Z-12.0000 F900
G01 X3.6000 F3000
G01 Y9.9000
G01 X9.5000
G01 Y15.3000
G01 X3.6000
G01 Y20.7000
G01 X9.5000
G01 Y26.1000
G01 X3.6000
G01 Y31.5000
G01 X9.5000
G01 Y36.9000
G01 X3.6000
G01 Y42.3000
G01 X9.5000
G01 Y47.7000
G01 X3.6000
G01 Y53.1000
G01 X9.5000
G01 Y58.5000
G01 X3.6000
G00 Z5.0000
G00 X9.5000 Y4.5000
G00 Z-11.5000
G01 Z-12.2500 F900
G01 X3.6000 F3000
G01 Y9.9000
G01 X9.5000
G01 Y15.3000
G01 X3.6000
G01 Y20.7000
G01 X9.5000
G01 Y26.1000
G01 X3.6000
G01 Y31.5000
G01 X9.5000
G01 Y36.9000
G01 X3.6000
G01 Y42.3000
G01 X9.5000
G01 Y47.7000
G01 X3.6000
G01 Y53.1000
G01 X9.5000
G01 Y58.5000
G01 X3.6000
G00 Z5.0000
G00 X9.5000 Y4.5000
G00 Z-11.7500
G01 Z-12.5000 F900
G01 X3.6000 F3000
G01 Y9.9000
G01 X9.5000
G01 Y15.3000
G01 X3.6000
G01 Y20.7000
G01 X9.5000
G01 Y26.1000
G01 X3.6000
G01 Y31.5000
G01 X9.5000
G01 Y36.9000
G01 X3.6000
G01 Y42.3000
G01 X9.5000
G01 Y47.7000
G01 X3.6000
G01 Y53.1000
G01 X9.5000
G01 Y58.5000
G01 X3.6000
G00 Z5.0000
G00 X9.5000 Y4.5000
G00 Z-12.0000
G01 Z-12.7500 F900
G01 X3.6000 F3000
G01 Y9.9000
G01 X9.5000
G01 Y15.3000
G01 X3.6000
G01 Y20.7000
G01 X9.5000
G01 Y26.1000
G01 X3.6000
G01 Y31.5000
G01 X9.5000
G01 Y36.9000
G01 X3.6000
G01 Y42.3000
G01 X9.5000
G01 Y47.7000
G01 X3.6000
G01 Y53.1000
G01 X9.5000
G01 Y58.5000
G01 X3.6000
G00 Z5.0000
G00 X9.5000 Y4.5000
G00 Z-12.2500
G01 Z-13.0000 F900
G01 X3.6000 F3000
G01 Y9.9000
G01 X9.5000
G01 Y15.3000
G01 X3.6000
G01 Y20.7000
G01 X9.5000
G01 Y26.1000
G01 X3.6000
G01 Y31.5000
G01 X9.5000
G01 Y36.9000
G01 X3.6000
G01 Y42.3000
G01 X9.5000
G01 Y47.7000
G01 X3.6000
G01 Y53.1000
G01 X9.5000
G01 Y58.5000
G01 X3.6000
G00 Z5.0000
G00 X9.5000 Y4.5000
G00 Z-12.5000
G01 Z-13.2500 F900
G01 X3.6000 F3000
G01 Y9.9000
G01 X9.5000
G01 Y15.3000
G01 X3.6000
G01 Y20.7000
G01 X9.5000
G01 Y26.1000
G01 X3.6000
G01 Y31.5000
G01 X9.5000
G01 Y36.9000
G01 X3.6000
G01 Y42.3000
G01 X9.5000
G01 Y47.7000
G01 X3.6000
G01 Y53.1000
G01 X9.5000
G01 Y58.5000
G01 X3.6000
G00 Z5.0000
G00 X9.5000 Y4.5000
G00 Z-12.7500
G01 Z-13.5000 F900
G01 X3.6000 F3000
G01 Y9.9000
G01 X9.5000
G01 Y15.3000
G01 X3.6000
G01 Y20.7000
G01 X9.5000
G01 Y26.1000
G01 X3.6000
G01 Y31.5000
G01 X9.5000
G01 Y36.9000
G01 X3.6000
G01 Y42.3000
G01 X9.5000
G01 Y47.7000
G01 X3.6000
G01 Y53.1000
G01 X9.5000
G01 Y58.5000
G01 X3.6000
G00 Z5.0000
G00 X9.5000 Y4.5000
G00 Z-13.0000
G01 Z-13.7500 F900
G01 X3.6000 F3000
G01 Y9.9000
G01 X9.5000
G01 Y15.3000
G01 X3.6000
G01 Y20.7000
G01 X9.5000
G01 Y26.1000
G01 X3.6000
G01 Y31.5000
G01 X9.5000
G01 Y36.9000
G01 X3.6000
G01 Y42.3000
G01 X9.5000
G01 Y47.7000
G01 X3.6000
G01 Y53.1000
G01 X9.5000
G01 Y58.5000
G01 X3.6000
G00 Z5.0000
G00 X9.5000 Y4.5000
G00 Z-13.2500
G01 Z-14.0000 F900
G01 X3.6000 F3000
G01 Y9.9000
G01 X9.5000
G01 Y15.3000
G01 X3.6000
G01 Y20.7000
G01 X9.5000
G01 Y26.1000
G01 X3.6000
G01 Y31.5000
G01 X9.5000
G01 Y36.9000
G01 X3.6000
G01 Y42.3000
G01 X9.5000
G01 Y47.7000
G01 X3.6000
G01 Y53.1000
G01 X9.5000
G01 Y58.5000
G01 X3.6000
G00 Z5.0000
G00 X9.5000 Y4.5000
G00 Z-13.5000
G01 Z-14.2500 F900
G01 X3.6000 F3000
G01 Y9.9000
G01 X9.5000
G01 Y15.3000
G01 X3.6000
G01 Y20.7000
G01 X9.5000
G01 Y26.1000
G01 X3.6000
G01 Y31.5000
G01 X9.5000
G01 Y36.9000
G01 X3.6000
G01 Y42.3000
G01 X9.5000
G01 Y47.7000
G01 X3.6000
G01 Y53.1000
G01 X9.5000
G01 Y58.5000
G01 X3.6000
G00 Z5.0000
G00 X9.5000 Y4.5000
G00 Z-13.7500
G01 Z-14.5000 F900
G01 X3.6000 F3000
G01 Y9.9000
G01 X9.5000
G01 Y15.3000
G01 X3.6000
G01 Y20.7000
G01 X9.5000
G01 Y26.1000
G01 X3.6000
G01 Y31.5000
G01 X9.5000
G01 Y36.9000
G01 X3.6000
G01 Y42.3000
G01 X9.5000
G01 Y47.7000
G01 X3.6000
G01 Y53.1000
G01 X9.5000
G01 Y58.5000
G01 X3.6000
G00 Z5.0000
G00 X9.5000 Y4.5000
G00 Z-14.0000
G01 Z-14.7500 F900
G01 X3.6000 F3000
G01 Y9.9000
G01 X9.5000
G01 Y15.3000
G01 X3.6000
G01 Y20.7000
G01 X9.5000
G01 Y26.1000
G01 X3.6000
G01 Y31.5000
G01 X9.5000
G01 Y36.9000
G01 X3.6000
G01 Y42.3000
G01 X9.5000
G01 Y47.7000
G01 X3.6000
G01 Y53.1000
G01 X9.5000
G01 Y58.5000
G01 X3.6000
G00 Z5.0000
G00 X9.5000 Y4.5000
G00 Z-14.2500
G01 Z-15.0000 F900
G01 X3.6000 F3000
G01 Y9.9000
G01 X9.5000
G01 Y15.3000
G01 X3.6000
G01 Y20.7000
G01 X9.5000
G01 Y26.1000
G01 X3.6000
G01 Y31.5000
G01 X9.5000
G01 Y36.9000
G01 X3.6000
G01 Y42.3000
G01 X9.5000
G01 Y47.7000
G01 X3.6000
G01 Y53.1000
G01 X9.5000
G01 Y58.5000
G01 X3.6000
G00 Z5.0000
G00 X9.5000 Y4.5000
G00 Z-14.5000
G01 Z-15.2500 F900
G01 X3.6000 F3000
G01 Y9.9000
G01 X9.5000
G01 Y15.3000
G01 X3.6000
G01 Y20.7000
G01 X9.5000
G01 Y26.1000
G01 X3.6000
G01 Y31.5000
G01 X9.5000
G01 Y36.9000
G01 X3.6000
G01 Y42.3000
G01 X9.5000
G01 Y47.7000
G01 X3.6000
G01 Y53.1000
G01 X9.5000
G01 Y58.5000
G01 X3.6000
G00 Z5.0000
G00 X9.5000 Y4.5000
G00 Z-14.7500
G01 Z-15.5000 F900
G01 X3.6000 F3000
G01 Y9.9000
G01 X9.5000
G01 Y15.3000
G01 X3.6000
G01 Y20.7000
G01 X9.5000
G01 Y26.1000
G01 X3.6000
G01 Y31.5000
G01 X9.5000
G01 Y36.9000
G01 X3.6000
G01 Y42.3000
G01 X9.5000
G01 Y47.7000
G01 X3.6000
G01 Y53.1000
G01 X9.5000
G01 Y58.5000
G01 X3.6000
G00 Z5.0000
G00 X9.5000 Y4.5000
G00 Z-15.0000
G01 Z-15.7500 F900
G01 X3.6000 F3000
G01 Y9.9000
G01 X9.5000
G01 Y15.3000
G01 X3.6000
G01 Y20.7000
G01 X9.5000
G01 Y26.1000
G01 X3.6000
G01 Y31.5000
G01 X9.5000
G01 Y36.9000
G01 X3.6000
G01 Y42.3000
G01 X9.5000
G01 Y47.7000
G01 X3.6000
G01 Y53.1000
G01 X9.5000
G01 Y58.5000
G01 X3.6000
G00 Z5.0000
G00 X9.5000 Y4.5000
G00 Z-15.2500
G01 Z-16.0000 F900
G01 X3.6000 F3000
G01 Y9.9000
G01 X9.5000
G01 Y15.3000
G01 X3.6000
G01 Y20.7000
G01 X9.5000
G01 Y26.1000
G01 X3.6000
G01 Y31.5000
G01 X9.5000
G01 Y36.9000
G01 X3.6000
G01 Y42.3000
G01 X9.5000
G01 Y47.7000
G01 X3.6000
G01 Y53.1000
G01 X9.5000
G01 Y58.5000
G01 X3.6000
G00 Z5.0000
G00 X9.5000 Y4.5000
G00 Z-15.5000
G01 Z-16.2500 F900
G01 X3.6000 F3000
G01 Y9.9000
G01 X9.5000
G01 Y15.3000
G01 X3.6000
G01 Y20.7000
G01 X9.5000
G01 Y26.1000
G01 X3.6000
G01 Y31.5000
G01 X9.5000
G01 Y36.9000
G01 X3.6000
G01 Y42.3000
G01 X9.5000
G01 Y47.7000
G01 X3.6000
G01 Y53.1000
G01 X9.5000
G01 Y58.5000
G01 X3.6000
G00 Z5.0000
G00 X9.5000 Y4.5000
G00 Z-15.7500
G01 Z-16.5000 F900
G01 X3.6000 F3000
G01 Y9.9000
G01 X9.5000
G01 Y15.3000
G01 X3.6000
G01 Y20.7000
G01 X9.5000
G01 Y26.1000
G01 X3.6000
G01 Y31.5000
G01 X9.5000
G01 Y36.9000
G01 X3.6000
G01 Y42.3000
G01 X9.5000
G01 Y47.7000
G01 X3.6000
G01 Y53.1000
G01 X9.5000
G01 Y58.5000
G01 X3.6000
G00 Z5.0000
G00 X9.5000 Y4.5000
G00 Z-16.0000
G01 Z-16.7500 F900
G01 X3.6000 F3000
G01 Y9.9000
G01 X9.5000
G01 Y15.3000
G01 X3.6000
G01 Y20.7000
G01 X9.5000
G01 Y26.1000
G01 X3.6000
G01 Y31.5000
G01 X9.5000
G01 Y36.9000
G01 X3.6000
G01 Y42.3000
G01 X9.5000
G01 Y47.7000
G01 X3.6000
G01 Y53.1000
G01 X9.5000
G01 Y58.5000
G01 X3.6000
G00 Z5.0000
G00 X9.5000 Y4.5000
G00 Z-16.2500
G01 Z-17.0000 F900
G01 X3.6000 F3000
G01 Y9.9000
G01 X9.5000
G01 Y15.3000
G01 X3.6000
G01 Y20.7000
G01 X9.5000
G01 Y26.1000
G01 X3.6000
G01 Y31.5000
G01 X9.5000
G01 Y36.9000
G01 X3.6000
G01 Y42.3000
G01 X9.5000
G01 Y47.7000
G01 X3.6000
G01 Y53.1000
G01 X9.5000
G01 Y58.5000
G01 X3.6000
G00 Z5.0000
G00 X9.5000 Y4.5000
G00 Z-16.5000
G01 Z-17.2500 F900
G01 X3.6000 F3000
G01 Y9.9000
G01 X9.5000
G01 Y15.3000
G01 X3.6000
G01 Y20.7000
G01 X9.5000
G01 Y26.1000
G01 X3.6000
G01 Y31.5000
G01 X9.5000
G01 Y36.9000
G01 X3.6000
G01 Y42.3000
G01 X9.5000
G01 Y47.7000
G01 X3.6000
G01 Y53.1000
G01 X9.5000
G01 Y58.5000
G01 X3.6000
G00 Z5.0000
G00 X9.5000 Y4.5000
G00 Z-16.7500
G01 Z-17.5000 F900
G01 X3.6000 F3000
G01 Y9.9000
G01 X9.5000
G01 Y15.3000
G01 X3.6000
G01 Y20.7000
G01 X9.5000
G01 Y26.1000
G01 X3.6000
G01 Y31.5000
G01 X9.5000
G01 Y36.9000
G01 X3.6000
G01 Y42.3000
G01 X9.5000
G01 Y47.7000
G01 X3.6000
G01 Y53.1000
G01 X9.5000
G01 Y58.5000
G01 X3.6000
G00 Z5.0000
G00 X9.5000 Y4.5000
G00 Z-17.0000
G01 Z-17.7500 F900
G01 X3.6000 F3000
G01 Y9.9000
G01 X9.5000
G01 Y15.3000
G01 X3.6000
G01 Y20.7000
G01 X9.5000
G01 Y26.1000
G01 X3.6000
G01 Y31.5000
G01 X9.5000
G01 Y36.9000
G01 X3.6000
G01 Y42.3000
G01 X9.5000
G01 Y47.7000
G01 X3.6000
G01 Y53.1000
G01 X9.5000
G01 Y58.5000
G01 X3.6000
G00 Z5.0000
G00 X9.5000 Y4.5000
G00 Z-17.2500
G01 Z-18.0000 F900
G01 X3.6000 F3000
G01 Y9.9000
G01 X9.5000
G01 Y15.3000
G01 X3.6000
G01 Y20.7000
G01 X9.5000
G01 Y26.1000
G01 X3.6000
G01 Y31.5000
G01 X9.5000
G01 Y36.9000
G01 X3.6000
G01 Y42.3000
G01 X9.5000
G01 Y47.7000
G01 X3.6000
G01 Y53.1000
G01 X9.5000
G01 Y58.5000
G01 X3.6000
G00 Z5.0000
G00 X9.5000 Y4.5000
G00 Z-17.5000
G01 Z-18.2500 F900
G01 X3.6000 F3000
G01 Y9.9000
G01 X9.5000
G01 Y15.3000
G01 X3.6000
G01 Y20.7000
G01 X9.5000
G01 Y26.1000
G01 X3.6000
G01 Y31.5000
G01 X9.5000
G01 Y36.9000
G01 X3.6000
G01 Y42.3000
G01 X9.5000
G01 Y47.7000
G01 X3.6000
G01 Y53.1000
G01 X9.5000
G01 Y58.5000
G01 X3.6000
G00 Z5.0000
G00 X9.5000 Y4.5000
G00 Z-17.7500
G01 Z-18.5000 F900
G01 X3.6000 F3000
G01 Y9.9000
G01 X9.5000
G01 Y15.3000
G01 X3.6000
G01 Y20.7000
G01 X9.5000
G01 Y26.1000
G01 X3.6000
G01 Y31.5000
G01 X9.5000
G01 Y36.9000
G01 X3.6000
G01 Y42.3000
G01 X9.5000
G01 Y47.7000
G01 X3.6000
G01 Y53.1000
G01 X9.5000
G01 Y58.5000
G01 X3.6000
G00 Z5.0000
G00 X9.5000 Y4.5000
G00 Z-18.0000
G01 Z-18.7500 F900
G01 X3.6000 F3000
G01 Y9.9000
G01 X9.5000
G01 Y15.3000
G01 X3.6000
G01 Y20.7000
G01 X9.5000
G01 Y26.1000
G01 X3.6000
G01 Y31.5000
G01 X9.5000
G01 Y36.9000
G01 X3.6000
G01 Y42.3000
G01 X9.5000
G01 Y47.7000
G01 X3.6000
G01 Y53.1000
G01 X9.5000
G01 Y58.5000
G01 X3.6000
G00 Z5.0000
G00 X9.5000 Y4.5000
G00 Z-18.2500
G01 Z-19.0000 F900
G01 X3.6000 F3000
G01 Y9.9000
G01 X9.5000
G01 Y15.3000
G01 X3.6000
G01 Y20.7000
G01 X9.5000
G01 Y26.1000
G01 X3.6000
G01 Y31.5000
G01 X9.5000
G01 Y36.9000
G01 X3.6000
G01 Y42.3000
G01 X9.5000
G01 Y47.7000
G01 X3.6000
G01 Y53.1000
G01 X9.5000
G01 Y58.5000
G01 X3.6000
G00 Z5.0000
G00 X9.5000 Y4.5000
G00 Z-18.5000
G01 Z-19.2500 F900
G01 X3.6000 F3000
G01 Y9.9000
G01 X9.5000
G01 Y15.3000
G01 X3.6000
G01 Y20.7000
G01 X9.5000
G01 Y26.1000
G01 X3.6000
G01 Y31.5000
G01 X9.5000
G01 Y36.9000
G01 X3.6000
G01 Y42.3000
G01 X9.5000
G01 Y47.7000
G01 X3.6000
G01 Y53.1000
G01 X9.5000
G01 Y58.5000
G01 X3.6000
G00 Z5.0000
G00 X9.5000 Y4.5000
G00 Z-18.7500
G01 Z-19.5000 F900
G01 X3.6000 F3000
G01 Y9.9000
G01 X9.5000
G01 Y15.3000
G01 X3.6000
G01 Y20.7000
G01 X9.5000
G01 Y26.1000
G01 X3.6000
G01 Y31.5000
G01 X9.5000
G01 Y36.9000
G01 X3.6000
G01 Y42.3000
G01 X9.5000
G01 Y47.7000
G01 X3.6000
G01 Y53.1000
G01 X9.5000
G01 Y58.5000
G01 X3.6000
G00 Z5.0000
G00 X9.5000 Y4.5000
G00 Z-19.0000
G01 Z-19.7500 F900
G01 X3.6000 F3000
G01 Y9.9000
G01 X9.5000
G01 Y15.3000
G01 X3.6000
G01 Y20.7000
G01 X9.5000
G01 Y26.1000
G01 X3.6000
G01 Y31.5000
G01 X9.5000
G01 Y36.9000
G01 X3.6000
G01 Y42.3000
G01 X9.5000
G01 Y47.7000
G01 X3.6000
G01 Y53.1000
G01 X9.5000
G01 Y58.5000
G01 X3.6000
G00 Z5.0000
G00 X9.5000 Y4.5000
G00 Z-19.2500
G01 Z-20.0000 F900
G01 X3.6000 F3000
G01 Y9.9000
G01 X9.5000
G01 Y15.3000
G01 X3.6000
G01 Y20.7000
G01 X9.5000
G01 Y26.1000
G01 X3.6000
G01 Y31.5000
G01 X9.5000
G01 Y36.9000
G01 X3.6000
G01 Y42.3000
G01 X9.5000
G01 Y47.7000
G01 X3.6000
G01 Y53.1000
G01 X9.5000
G01 Y58.5000
G01 X3.6000
G00 Z5.0000
G00 X9.5000 Y4.5000
G00 Z-19.5000
G01 Z-20.2500 F900
G01 X3.6000 F3000
G01 Y9.9000
G01 X9.5000
G01 Y15.3000
G01 X3.6000
G01 Y20.7000
G01 X9.5000
G01 Y26.1000
G01 X3.6000
G01 Y31.5000
G01 X9.5000
G01 Y36.9000
G01 X3.6000
G01 Y42.3000
G01 X9.5000
G01 Y47.7000
G01 X3.6000
G01 Y53.1000
G01 X9.5000
G01 Y58.5000
G01 X3.6000
G00 Z5.0000
G00 X9.5000 Y4.5000
G00 Z-19.7500
G01 Z-20.5000 F900
G01 X3.6000 F3000
G01 Y9.9000
G01 X9.5000
G01 Y15.3000
G01 X3.6000
G01 Y20.7000
G01 X9.5000
G01 Y26.1000
G01 X3.6000
G01 Y31.5000
G01 X9.5000
G01 Y36.9000
G01 X3.6000
G01 Y42.3000
G01 X9.5000
G01 Y47.7000
G01 X3.6000
G01 Y53.1000
G01 X9.5000
G01 Y58.5000
G01 X3.6000
G00 Z5.0000
G00 X9.5000 Y4.5000
G00 Z-20.0000
G01 Z-20.7500 F900
G01 X3.6000 F3000
G01 Y9.9000
G01 X9.5000
G01 Y15.3000
G01 X3.6000
G01 Y20.7000
G01 X9.5000
G01 Y26.1000
G01 X3.6000
G01 Y31.5000
G01 X9.5000
G01 Y36.9000
G01 X3.6000
G01 Y42.3000
G01 X9.5000
G01 Y47.7000
G01 X3.6000
G01 Y53.1000
G01 X9.5000
G01 Y58.5000
G01 X3.6000
G00 Z5.0000
G00 X9.5000 Y4.5000
G00 Z-20.2500
G01 Z-21.0000 F900
G01 X3.6000 F3000
G01 Y9.9000
G01 X9.5000
G01 Y15.3000
G01 X3.6000
G01 Y20.7000
G01 X9.5000
G01 Y26.1000
G01 X3.6000
G01 Y31.5000
G01 X9.5000
G01 Y36.9000
G01 X3.6000
G01 Y42.3000
G01 X9.5000
G01 Y47.7000
G01 X3.6000
G01 Y53.1000
G01 X9.5000
G01 Y58.5000
G01 X3.6000
G00 Z5.0000
G00 X9.5000 Y4.5000
G00 Z-20.5000
G01 Z-21.2500 F900
G01 X3.6000 F3000
G01 Y9.9000
G01 X9.5000
G01 Y15.3000
G01 X3.6000
G01 Y20.7000
G01 X9.5000
G01 Y26.1000
G01 X3.6000
G01 Y31.5000
G01 X9.5000
G01 Y36.9000
G01 X3.6000
G01 Y42.3000
G01 X9.5000
G01 Y47.7000
G01 X3.6000
G01 Y53.1000
G01 X9.5000
G01 Y58.5000
G01 X3.6000
G00 Z5.0000
G00 X9.5000 Y4.5000
G00 Z-20.7500
G01 Z-21.5000 F900
G01 X3.6000 F3000
G01 Y9.9000
G01 X9.5000
G01 Y15.3000
G01 X3.6000
G01 Y20.7000
G01 X9.5000
G01 Y26.1000
G01 X3.6000
G01 Y31.5000
G01 X9.5000
G01 Y36.9000
G01 X3.6000
G01 Y42.3000
G01 X9.5000
G01 Y47.7000
G01 X3.6000
G01 Y53.1000
G01 X9.5000
G01 Y58.5000
G01 X3.6000
G00 Z5.0000
G00 X9.5000 Y4.5000
G00 Z-21.0000
G01 Z-21.7500 F900
G01 X3.6000 F3000
G01 Y9.9000
G01 X9.5000
G01 Y15.3000
G01 X3.6000
G01 Y20.7000
G01 X9.5000
G01 Y26.1000
G01 X3.6000
G01 Y31.5000
G01 X9.5000
G01 Y36.9000
G01 X3.6000
G01 Y42.3000
G01 X9.5000
G01 Y47.7000
G01 X3.6000
G01 Y53.1000
G01 X9.5000
G01 Y58.5000
G01 X3.6000
G00 Z5.0000
G00 X9.5000 Y4.5000
G00 Z-21.2500
G01 Z-22.0000 F900
G01 X3.6000 F3000
G01 Y9.9000
G01 X9.5000
G01 Y15.3000
G01 X3.6000
G01 Y20.7000
G01 X9.5000
G01 Y26.1000
G01 X3.6000
G01 Y31.5000
G01 X9.5000
G01 Y36.9000
G01 X3.6000
G01 Y42.3000
G01 X9.5000
G01 Y47.7000
G01 X3.6000
G01 Y53.1000
G01 X9.5000
G01 Y58.5000
G01 X3.6000
G00 Z5.0000


(No. 3: Pocket side wall: ?????????? ?????????? ????? 1)
G00 X3.0000 Y3.0000 Z5.0000
G00 Z0.5000
G01 Z-0.2500 F900
G01 Y60.0000 F3000
G01 X10.1000
G01 Y3.0000
G01 X3.0000
G01 Z-0.5000 F900
G01 Y60.0000 F3000
G01 X10.1000
G01 Y3.0000
G01 X3.0000
G01 Z-0.7500 F900
G01 Y60.0000 F3000
G01 X10.1000
G01 Y3.0000
G01 X3.0000
G01 Z-1.0000 F900
G01 Y60.0000 F3000
G01 X10.1000
G01 Y3.0000
G01 X3.0000
G01 Z-1.2500 F900
G01 Y60.0000 F3000
G01 X10.1000
G01 Y3.0000
G01 X3.0000
G01 Z-1.5000 F900
G01 Y60.0000 F3000
G01 X10.1000
G01 Y3.0000
G01 X3.0000
G01 Z-1.7500 F900
G01 Y60.0000 F3000
G01 X10.1000
G01 Y3.0000
G01 X3.0000
G01 Z-2.0000 F900
G01 Y60.0000 F3000
G01 X10.1000
G01 Y3.0000
G01 X3.0000
G01 Z-2.2500 F900
G01 Y60.0000 F3000
G01 X10.1000
G01 Y3.0000
G01 X3.0000
G01 Z-2.5000 F900
G01 Y60.0000 F3000
G01 X10.1000
G01 Y3.0000
G01 X3.0000
G01 Z-2.7500 F900
G01 Y60.0000 F3000
G01 X10.1000
G01 Y3.0000
G01 X3.0000
G01 Z-3.0000 F900
G01 Y60.0000 F3000
G01 X10.1000
G01 Y3.0000
G01 X3.0000
G01 Z-3.2500 F900
G01 Y60.0000 F3000
G01 X10.1000
G01 Y3.0000
G01 X3.0000
G01 Z-3.5000 F900
G01 Y60.0000 F3000
G01 X10.1000
G01 Y3.0000
G01 X3.0000
G01 Z-3.7500 F900
G01 Y60.0000 F3000
G01 X10.1000
G01 Y3.0000
G01 X3.0000
G01 Z-4.0000 F900
G01 Y60.0000 F3000
G01 X10.1000
G01 Y3.0000
G01 X3.0000
G01 Z-4.2500 F900
G01 Y60.0000 F3000
G01 X10.1000
G01 Y3.0000
G01 X3.0000
G01 Z-4.5000 F900
G01 Y60.0000 F3000
G01 X10.1000
G01 Y3.0000
G01 X3.0000
G01 Z-4.7500 F900
G01 Y60.0000 F3000
G01 X10.1000
G01 Y3.0000
G01 X3.0000
G01 Z-5.0000 F900
G01 Y60.0000 F3000
G01 X10.1000
G01 Y3.0000
G01 X3.0000
G01 Z-5.2500 F900
G01 Y60.0000 F3000
G01 X10.1000
G01 Y3.0000
G01 X3.0000
G01 Z-5.5000 F900
G01 Y60.0000 F3000
G01 X10.1000
G01 Y3.0000
G01 X3.0000
G01 Z-5.7500 F900
G01 Y60.0000 F3000
G01 X10.1000
G01 Y3.0000
G01 X3.0000
G01 Z-6.0000 F900
G01 Y60.0000 F3000
G01 X10.1000
G01 Y3.0000
G01 X3.0000
G01 Z-6.2500 F900
G01 Y60.0000 F3000
G01 X10.1000
G01 Y3.0000
G01 X3.0000
G01 Z-6.5000 F900
G01 Y60.0000 F3000
G01 X10.1000
G01 Y3.0000
G01 X3.0000
G01 Z-6.7500 F900
G01 Y60.0000 F3000
G01 X10.1000
G01 Y3.0000
G01 X3.0000
G01 Z-7.0000 F900
G01 Y60.0000 F3000
G01 X10.1000
G01 Y3.0000
G01 X3.0000
G01 Z-7.2500 F900
G01 Y60.0000 F3000
G01 X10.1000
G01 Y3.0000
G01 X3.0000
G01 Z-7.5000 F900
G01 Y60.0000 F3000
G01 X10.1000
G01 Y3.0000
G01 X3.0000
G01 Z-7.7500 F900
G01 Y60.0000 F3000
G01 X10.1000
G01 Y3.0000
G01 X3.0000
G01 Z-8.0000 F900
G01 Y60.0000 F3000
G01 X10.1000
G01 Y3.0000
G01 X3.0000
G01 Z-8.2500 F900
G01 Y60.0000 F3000
G01 X10.1000
G01 Y3.0000
G01 X3.0000
G01 Z-8.5000 F900
G01 Y60.0000 F3000
G01 X10.1000
G01 Y3.0000
G01 X3.0000
G01 Z-8.7500 F900
G01 Y60.0000 F3000
G01 X10.1000
G01 Y3.0000
G01 X3.0000
G01 Z-9.0000 F900
G01 Y60.0000 F3000
G01 X10.1000
G01 Y3.0000
G01 X3.0000
G01 Z-9.2500 F900
G01 Y60.0000 F3000
G01 X10.1000
G01 Y3.0000
G01 X3.0000
G01 Z-9.5000 F900
G01 Y60.0000 F3000
G01 X10.1000
G01 Y3.0000
G01 X3.0000
G01 Z-9.7500 F900
G01 Y60.0000 F3000
G01 X10.1000
G01 Y3.0000
G01 X3.0000
G01 Z-10.0000 F900
G01 Y60.0000 F3000
G01 X10.1000
G01 Y3.0000
G01 X3.0000
G01 Z-10.2500 F900
G01 Y60.0000 F3000
G01 X10.1000
G01 Y3.0000
G01 X3.0000
G01 Z-10.5000 F900
G01 Y60.0000 F3000
G01 X10.1000
G01 Y3.0000
G01 X3.0000
G01 Z-10.7500 F900
G01 Y60.0000 F3000
G01 X10.1000
G01 Y3.0000
G01 X3.0000
G01 Z-11.0000 F900
G01 Y60.0000 F3000
G01 X10.1000
G01 Y3.0000
G01 X3.0000
G01 Z-11.2500 F900
G01 Y60.0000 F3000
G01 X10.1000
G01 Y3.0000
G01 X3.0000
G01 Z-11.5000 F900
G01 Y60.0000 F3000
G01 X10.1000
G01 Y3.0000
G01 X3.0000
G01 Z-11.7500 F900
G01 Y60.0000 F3000
G01 X10.1000
G01 Y3.0000
G01 X3.0000
G01 Z-12.0000 F900
G01 Y60.0000 F3000
G01 X10.1000
G01 Y3.0000
G01 X3.0000
G01 Z-12.2500 F900
G01 Y60.0000 F3000
G01 X10.1000
G01 Y3.0000
G01 X3.0000
G01 Z-12.5000 F900
G01 Y60.0000 F3000
G01 X10.1000
G01 Y3.0000
G01 X3.0000
G01 Z-12.7500 F900
G01 Y60.0000 F3000
G01 X10.1000
G01 Y3.0000
G01 X3.0000
G01 Z-13.0000 F900
G01 Y60.0000 F3000
G01 X10.1000
G01 Y3.0000
G01 X3.0000
G01 Z-13.2500 F900
G01 Y60.0000 F3000
G01 X10.1000
G01 Y3.0000
G01 X3.0000
G01 Z-13.5000 F900
G01 Y60.0000 F3000
G01 X10.1000
G01 Y3.0000
G01 X3.0000
G01 Z-13.7500 F900
G01 Y60.0000 F3000
G01 X10.1000
G01 Y3.0000
G01 X3.0000
G01 Z-14.0000 F900
G01 Y60.0000 F3000
G01 X10.1000
G01 Y3.0000
G01 X3.0000
G01 Z-14.2500 F900
G01 Y60.0000 F3000
G01 X10.1000
G01 Y3.0000
G01 X3.0000
G01 Z-14.5000 F900
G01 Y60.0000 F3000
G01 X10.1000
G01 Y3.0000
G01 X3.0000
G01 Z-14.7500 F900
G01 Y60.0000 F3000
G01 X10.1000
G01 Y3.0000
G01 X3.0000
G01 Z-15.0000 F900
G01 Y60.0000 F3000
G01 X10.1000
G01 Y3.0000
G01 X3.0000
G01 Z-15.2500 F900
G01 Y60.0000 F3000
G01 X10.1000
G01 Y3.0000
G01 X3.0000
G01 Z-15.5000 F900
G01 Y60.0000 F3000
G01 X10.1000
G01 Y3.0000
G01 X3.0000
G01 Z-15.7500 F900
G01 Y60.0000 F3000
G01 X10.1000
G01 Y3.0000
G01 X3.0000
G01 Z-16.0000 F900
G01 Y60.0000 F3000
G01 X10.1000
G01 Y3.0000
G01 X3.0000
G01 Z-16.2500 F900
G01 Y60.0000 F3000
G01 X10.1000
G01 Y3.0000
G01 X3.0000
G01 Z-16.5000 F900
G01 Y60.0000 F3000
G01 X10.1000
G01 Y3.0000
G01 X3.0000
G01 Z-16.7500 F900
G01 Y60.0000 F3000
G01 X10.1000
G01 Y3.0000
G01 X3.0000
G01 Z-17.0000 F900
G01 Y60.0000 F3000
G01 X10.1000
G01 Y3.0000
G01 X3.0000
G01 Z-17.2500 F900
G01 Y60.0000 F3000
G01 X10.1000
G01 Y3.0000
G01 X3.0000
G01 Z-17.5000 F900
G01 Y60.0000 F3000
G01 X10.1000
G01 Y3.0000
G01 X3.0000
G01 Z-17.7500 F900
G01 Y60.0000 F3000
G01 X10.1000
G01 Y3.0000
G01 X3.0000
G01 Z-18.0000 F900
G01 Y60.0000 F3000
G01 X10.1000
G01 Y3.0000
G01 X3.0000
G01 Z-18.2500 F900
G01 Y60.0000 F3000
G01 X10.1000
G01 Y3.0000
G01 X3.0000
G01 Z-18.5000 F900
G01 Y60.0000 F3000
G01 X10.1000
G01 Y3.0000
G01 X3.0000
G01 Z-18.7500 F900
G01 Y60.0000 F3000
G01 X10.1000
G01 Y3.0000
G01 X3.0000
G01 Z-19.0000 F900
G01 Y60.0000 F3000
G01 X10.1000
G01 Y3.0000
G01 X3.0000
G01 Z-19.2500 F900
G01 Y60.0000 F3000
G01 X10.1000
G01 Y3.0000
G01 X3.0000
G01 Z-19.5000 F900
G01 Y60.0000 F3000
G01 X10.1000
G01 Y3.0000
G01 X3.0000
G01 Z-19.7500 F900
G01 Y60.0000 F3000
G01 X10.1000
G01 Y3.0000
G01 X3.0000
G01 Z-20.0000 F900
G01 Y60.0000 F3000
G01 X10.1000
G01 Y3.0000
G01 X3.0000
G01 Z-20.2500 F900
G01 Y60.0000 F3000
G01 X10.1000
G01 Y3.0000
G01 X3.0000
G01 Z-20.5000 F900
G01 Y60.0000 F3000
G01 X10.1000
G01 Y3.0000
G01 X3.0000
G01 Z-20.7500 F900
G01 Y60.0000 F3000
G01 X10.1000
G01 Y3.0000
G01 X3.0000
G01 Z-21.0000 F900
G01 Y60.0000 F3000
G01 X10.1000
G01 Y3.0000
G01 X3.0000
G01 Z-21.2500 F900
G01 Y60.0000 F3000
G01 X10.1000
G01 Y3.0000
G01 X3.0000
G01 Z-21.5000 F900
G01 Y60.0000 F3000
G01 X10.1000
G01 Y3.0000
G01 X3.0000
G01 Z-21.7500 F900
G01 Y60.0000 F3000
G01 X10.1000
G01 Y3.0000
G01 X3.0000
G01 Z-22.0000 F900
G01 Y60.0000 F3000
G01 X10.1000
G01 Y3.0000
G01 X3.0000
G00 Z5.0000


(No. 4: Pocketing: ?????????? ?????????? ????? 3)
G00 X49.4000 Y4.5000 Z5.0000
G00 Z0.5000
G01 Z-0.2500 F900
G01 X42.5000 F3000
G01 Y9.9000
G01 X49.4000
G01 Y15.3000
G01 X42.5000
G01 Y20.7000
G01 X49.4000
G01 Y26.1000
G01 X47.3811
G01 X47.4282 Y26.2848
G01 X47.4820 Y26.6406
G01 X47.5000 Y27.0000
G01 Y31.5000
G01 X49.4000
G01 Y36.9000
G01 X47.3829
G01 Y42.3000
G01 X49.4000
G01 X42.5000
G01 Y47.7000
G01 X49.4000
G01 Y53.1000
G01 X42.5000
G01 Y58.5000
G01 X49.4000
G00 Z5.0000
G00 Y4.5000
G00 Z0.2500
G01 Z-0.5000 F900
G01 X42.5000 F3000
G01 Y9.9000
G01 X49.4000
G01 Y15.3000
G01 X42.5000
G01 Y20.7000
G01 X49.4000
G01 Y26.1000
G01 X47.3811
G01 X47.4282 Y26.2848
G01 X47.4820 Y26.6406
G01 X47.5000 Y27.0000
G01 Y31.5000
G01 X49.4000
G01 Y36.9000
G01 X47.3829
G01 Y42.3000
G01 X49.4000
G01 X42.5000
G01 Y47.7000
G01 X49.4000
G01 Y53.1000
G01 X42.5000
G01 Y58.5000
G01 X49.4000
G00 Z5.0000
G00 Y4.5000
G00 Z0.0000
G01 Z-0.7500 F900
G01 X42.5000 F3000
G01 Y9.9000
G01 X49.4000
G01 Y15.3000
G01 X42.5000
G01 Y20.7000
G01 X49.4000
G01 Y26.1000
G01 X47.3811
G01 X47.4282 Y26.2848
G01 X47.4820 Y26.6406
G01 X47.5000 Y27.0000
G01 Y31.5000
G01 X49.4000
G01 Y36.9000
G01 X47.3829
G01 Y42.3000
G01 X49.4000
G01 X42.5000
G01 Y47.7000
G01 X49.4000
G01 Y53.1000
G01 X42.5000
G01 Y58.5000
G01 X49.4000
G00 Z5.0000
G00 Y4.5000
G00 Z-0.2500
G01 Z-1.0000 F900
G01 X42.5000 F3000
G01 Y9.9000
G01 X49.4000
G01 Y15.3000
G01 X42.5000
G01 Y20.7000
G01 X49.4000
G01 Y26.1000
G01 X47.3811
G01 X47.4282 Y26.2848
G01 X47.4820 Y26.6406
G01 X47.5000 Y27.0000
G01 Y31.5000
G01 X49.4000
G01 Y36.9000
G01 X47.3829
G01 Y42.3000
G01 X49.4000
G01 X42.5000
G01 Y47.7000
G01 X49.4000
G01 Y53.1000
G01 X42.5000
G01 Y58.5000
G01 X49.4000
G00 Z5.0000
G00 Y4.5000
G00 Z-0.5000
G01 Z-1.2500 F900
G01 X42.5000 F3000
G01 Y9.9000
G01 X49.4000
G01 Y15.3000
G01 X42.5000
G01 Y20.7000
G01 X49.4000
G01 Y26.1000
G01 X47.3811
G01 X47.4282 Y26.2848
G01 X47.4820 Y26.6406
G01 X47.5000 Y27.0000
G01 Y31.5000
G01 X49.4000
G01 Y36.9000
G01 X47.3829
G01 Y42.3000
G01 X49.4000
G01 X42.5000
G01 Y47.7000
G01 X49.4000
G01 Y53.1000
G01 X42.5000
G01 Y58.5000
G01 X49.4000
G00 Z5.0000
G00 Y4.5000
G00 Z-0.7500
G01 Z-1.5000 F900
G01 X42.5000 F3000
G01 Y9.9000
G01 X49.4000
G01 Y15.3000
G01 X42.5000
G01 Y20.7000
G01 X49.4000
G01 Y26.1000
G01 X47.3811
G01 X47.4282 Y26.2848
G01 X47.4820 Y26.6406
G01 X47.5000 Y27.0000
G01 Y31.5000
G01 X49.4000
G01 Y36.9000
G01 X47.3829
G01 Y42.3000
G01 X49.4000
G01 X42.5000
G01 Y47.7000
G01 X49.4000
G01 Y53.1000
G01 X42.5000
G01 Y58.5000
G01 X49.4000
G00 Z5.0000
G00 Y4.5000
G00 Z-1.0000
G01 Z-1.7500 F900
G01 X42.5000 F3000
G01 Y9.9000
G01 X49.4000
G01 Y15.3000
G01 X42.5000
G01 Y20.7000
G01 X49.4000
G01 Y26.1000
G01 X47.3811
G01 X47.4282 Y26.2848
G01 X47.4820 Y26.6406
G01 X47.5000 Y27.0000
G01 Y31.5000
G01 X49.4000
G01 Y36.9000
G01 X47.3829
G01 Y42.3000
G01 X49.4000
G01 X42.5000
G01 Y47.7000
G01 X49.4000
G01 Y53.1000
G01 X42.5000
G01 Y58.5000
G01 X49.4000
G00 Z5.0000
G00 Y4.5000
G00 Z-1.2500
G01 Z-2.0000 F900
G01 X42.5000 F3000
G01 Y9.9000
G01 X49.4000
G01 Y15.3000
G01 X42.5000
G01 Y20.7000
G01 X49.4000
G01 Y26.1000
G01 X47.3811
G01 X47.4282 Y26.2848
G01 X47.4820 Y26.6406
G01 X47.5000 Y27.0000
G01 Y31.5000
G01 X49.4000
G01 Y36.9000
G01 X47.3829
G01 Y42.3000
G01 X49.4000
G01 X42.5000
G01 Y47.7000
G01 X49.4000
G01 Y53.1000
G01 X42.5000
G01 Y58.5000
G01 X49.4000
G00 Z5.0000
G00 Y4.5000
G00 Z-1.5000
G01 Z-2.2500 F900
G01 X42.5000 F3000
G01 Y9.9000
G01 X49.4000
G01 Y15.3000
G01 X42.5000
G01 Y20.7000
G01 X49.4000
G01 Y26.1000
G01 X47.3811
G01 X47.4282 Y26.2848
G01 X47.4820 Y26.6406
G01 X47.5000 Y27.0000
G01 Y31.5000
G01 X49.4000
G01 Y36.9000
G01 X47.3829
G01 Y42.3000
G01 X49.4000
G01 X42.5000
G01 Y47.7000
G01 X49.4000
G01 Y53.1000
G01 X42.5000
G01 Y58.5000
G01 X49.4000
G00 Z5.0000
G00 Y4.5000
G00 Z-1.7500
G01 Z-2.5000 F900
G01 X42.5000 F3000
G01 Y9.9000
G01 X49.4000
G01 Y15.3000
G01 X42.5000
G01 Y20.7000
G01 X49.4000
G01 Y26.1000
G01 X47.3811
G01 X47.4282 Y26.2848
G01 X47.4820 Y26.6406
G01 X47.5000 Y27.0000
G01 Y31.5000
G01 X49.4000
G01 Y36.9000
G01 X47.3829
G01 Y42.3000
G01 X49.4000
G01 X42.5000
G01 Y47.7000
G01 X49.4000
G01 Y53.1000
G01 X42.5000
G01 Y58.5000
G01 X49.4000
G00 Z5.0000
G00 Y4.5000
G00 Z-2.0000
G01 Z-2.7500 F900
G01 X42.5000 F3000
G01 Y9.9000
G01 X49.4000
G01 Y15.3000
G01 X42.5000
G01 Y20.7000
G01 X49.4000
G01 Y26.1000
G01 X47.3811
G01 X47.4282 Y26.2848
G01 X47.4820 Y26.6406
G01 X47.5000 Y27.0000
G01 Y31.5000
G01 X49.4000
G01 Y36.9000
G01 X47.3829
G01 Y42.3000
G01 X49.4000
G01 X42.5000
G01 Y47.7000
G01 X49.4000
G01 Y53.1000
G01 X42.5000
G01 Y58.5000
G01 X49.4000
G00 Z5.0000
G00 Y4.5000
G00 Z-2.2500
G01 Z-3.0000 F900
G01 X42.5000 F3000
G01 Y9.9000
G01 X49.4000
G01 Y15.3000
G01 X42.5000
G01 Y20.7000
G01 X49.4000
G01 Y26.1000
G01 X47.3811
G01 X47.4282 Y26.2848
G01 X47.4820 Y26.6406
G01 X47.5000 Y27.0000
G01 Y31.5000
G01 X49.4000
G01 Y36.9000
G01 X47.3829
G01 Y42.3000
G01 X49.4000
G01 X42.5000
G01 Y47.7000
G01 X49.4000
G01 Y53.1000
G01 X42.5000
G01 Y58.5000
G01 X49.4000
G00 Z5.0000
G00 Y4.5000
G00 Z-2.5000
G01 Z-3.2500 F900
G01 X42.5000 F3000
G01 Y9.9000
G01 X49.4000
G01 Y15.3000
G01 X42.5000
G01 Y20.7000
G01 X49.4000
G01 Y26.1000
G01 X47.3811
G01 X47.4282 Y26.2848
G01 X47.4820 Y26.6406
G01 X47.5000 Y27.0000
G01 Y31.5000
G01 X49.4000
G01 Y36.9000
G01 X47.3829
G01 Y42.3000
G01 X49.4000
G01 X42.5000
G01 Y47.7000
G01 X49.4000
G01 Y53.1000
G01 X42.5000
G01 Y58.5000
G01 X49.4000
G00 Z5.0000
G00 Y4.5000
G00 Z-2.7500
G01 Z-3.5000 F900
G01 X42.5000 F3000
G01 Y9.9000
G01 X49.4000
G01 Y15.3000
G01 X42.5000
G01 Y20.7000
G01 X49.4000
G01 Y26.1000
G01 X47.3811
G01 X47.4282 Y26.2848
G01 X47.4820 Y26.6406
G01 X47.5000 Y27.0000
G01 Y31.5000
G01 X49.4000
G01 Y36.9000
G01 X47.3829
G01 Y42.3000
G01 X49.4000
G01 X42.5000
G01 Y47.7000
G01 X49.4000
G01 Y53.1000
G01 X42.5000
G01 Y58.5000
G01 X49.4000
G00 Z5.0000
G00 Y4.5000
G00 Z-3.0000
G01 Z-3.7500 F900
G01 X42.5000 F3000
G01 Y9.9000
G01 X49.4000
G01 Y15.3000
G01 X42.5000
G01 Y20.7000
G01 X49.4000
G01 Y26.1000
G01 X47.3811
G01 X47.4282 Y26.2848
G01 X47.4820 Y26.6406
G01 X47.5000 Y27.0000
G01 Y31.5000
G01 X49.4000
G01 Y36.9000
G01 X47.3829
G01 Y42.3000
G01 X49.4000
G01 X42.5000
G01 Y47.7000
G01 X49.4000
G01 Y53.1000
G01 X42.5000
G01 Y58.5000
G01 X49.4000
G00 Z5.0000
G00 Y4.5000
G00 Z-3.2500
G01 Z-4.0000 F900
G01 X42.5000 F3000
G01 Y9.9000
G01 X49.4000
G01 Y15.3000
G01 X42.5000
G01 Y20.7000
G01 X49.4000
G01 Y26.1000
G01 X47.3811
G01 X47.4282 Y26.2848
G01 X47.4820 Y26.6406
G01 X47.5000 Y27.0000
G01 Y31.5000
G01 X49.4000
G01 Y36.9000
G01 X47.3829
G01 Y42.3000
G01 X49.4000
G01 X42.5000
G01 Y47.7000
G01 X49.4000
G01 Y53.1000
G01 X42.5000
G01 Y58.5000
G01 X49.4000
G00 Z5.0000
G00 Y4.5000
G00 Z-3.5000
G01 Z-4.2500 F900
G01 X42.5000 F3000
G01 Y9.9000
G01 X49.4000
G01 Y15.3000
G01 X42.5000
G01 Y20.7000
G01 X49.4000
G01 Y26.1000
G01 X47.3811
G01 X47.4282 Y26.2848
G01 X47.4820 Y26.6406
G01 X47.5000 Y27.0000
G01 Y31.5000
G01 X49.4000
G01 Y36.9000
G01 X47.3829
G01 Y42.3000
G01 X49.4000
G01 X42.5000
G01 Y47.7000
G01 X49.4000
G01 Y53.1000
G01 X42.5000
G01 Y58.5000
G01 X49.4000
G00 Z5.0000
G00 Y4.5000
G00 Z-3.7500
G01 Z-4.5000 F900
G01 X42.5000 F3000
G01 Y9.9000
G01 X49.4000
G01 Y15.3000
G01 X42.5000
G01 Y20.7000
G01 X49.4000
G01 Y26.1000
G01 X47.3811
G01 X47.4282 Y26.2848
G01 X47.4820 Y26.6406
G01 X47.5000 Y27.0000
G01 Y31.5000
G01 X49.4000
G01 Y36.9000
G01 X47.3829
G01 Y42.3000
G01 X49.4000
G01 X42.5000
G01 Y47.7000
G01 X49.4000
G01 Y53.1000
G01 X42.5000
G01 Y58.5000
G01 X49.4000
G00 Z5.0000
G00 Y4.5000
G00 Z-4.0000
G01 Z-4.7500 F900
G01 X42.5000 F3000
G01 Y9.9000
G01 X49.4000
G01 Y15.3000
G01 X42.5000
G01 Y20.7000
G01 X49.4000
G01 Y26.1000
G01 X47.3811
G01 X47.4282 Y26.2848
G01 X47.4820 Y26.6406
G01 X47.5000 Y27.0000
G01 Y31.5000
G01 X49.4000
G01 Y36.9000
G01 X47.3829
G01 Y42.3000
G01 X49.4000
G01 X42.5000
G01 Y47.7000
G01 X49.4000
G01 Y53.1000
G01 X42.5000
G01 Y58.5000
G01 X49.4000
G00 Z5.0000
G00 Y4.5000
G00 Z-4.2500
G01 Z-5.0000 F900
G01 X42.5000 F3000
G01 Y9.9000
G01 X49.4000
G01 Y15.3000
G01 X42.5000
G01 Y20.7000
G01 X49.4000
G01 Y26.1000
G01 X47.3811
G01 X47.4282 Y26.2848
G01 X47.4820 Y26.6406
G01 X47.5000 Y27.0000
G01 Y31.5000
G01 X49.4000
G01 Y36.9000
G01 X47.3829
G01 Y42.3000
G01 X49.4000
G01 X42.5000
G01 Y47.7000
G01 X49.4000
G01 Y53.1000
G01 X42.5000
G01 Y58.5000
G01 X49.4000
G00 Z5.0000
G00 Y4.5000
G00 Z-4.5000
G01 Z-5.2500 F900
G01 X42.5000 F3000
G01 Y9.9000
G01 X49.4000
G01 Y15.3000
G01 X42.5000
G01 Y20.7000
G01 X49.4000
G01 Y26.1000
G01 X47.3811
G01 X47.4282 Y26.2848
G01 X47.4820 Y26.6406
G01 X47.5000 Y27.0000
G01 Y31.5000
G01 X49.4000
G01 Y36.9000
G01 X47.3829
G01 Y42.3000
G01 X49.4000
G01 X42.5000
G01 Y47.7000
G01 X49.4000
G01 Y53.1000
G01 X42.5000
G01 Y58.5000
G01 X49.4000
G00 Z5.0000
G00 Y4.5000
G00 Z-4.7500
G01 Z-5.5000 F900
G01 X42.5000 F3000
G01 Y9.9000
G01 X49.4000
G01 Y15.3000
G01 X42.5000
G01 Y20.7000
G01 X49.4000
G01 Y26.1000
G01 X47.3811
G01 X47.4282 Y26.2848
G01 X47.4820 Y26.6406
G01 X47.5000 Y27.0000
G01 Y31.5000
G01 X49.4000
G01 Y36.9000
G01 X47.3829
G01 Y42.3000
G01 X49.4000
G01 X42.5000
G01 Y47.7000
G01 X49.4000
G01 Y53.1000
G01 X42.5000
G01 Y58.5000
G01 X49.4000
G00 Z5.0000
G00 Y4.5000
G00 Z-5.0000
G01 Z-5.7500 F900
G01 X42.5000 F3000
G01 Y9.9000
G01 X49.4000
G01 Y15.3000
G01 X42.5000
G01 Y20.7000
G01 X49.4000
G01 Y26.1000
G01 X47.3811
G01 X47.4282 Y26.2848
G01 X47.4820 Y26.6406
G01 X47.5000 Y27.0000
G01 Y31.5000
G01 X49.4000
G01 Y36.9000
G01 X47.3829
G01 Y42.3000
G01 X49.4000
G01 X42.5000
G01 Y47.7000
G01 X49.4000
G01 Y53.1000
G01 X42.5000
G01 Y58.5000
G01 X49.4000
G00 Z5.0000
G00 Y4.5000
G00 Z-5.2500
G01 Z-6.0000 F900
G01 X42.5000 F3000
G01 Y9.9000
G01 X49.4000
G01 Y15.3000
G01 X42.5000
G01 Y20.7000
G01 X49.4000
G01 Y26.1000
G01 X47.3811
G01 X47.4282 Y26.2848
G01 X47.4820 Y26.6406
G01 X47.5000 Y27.0000
G01 Y31.5000
G01 X49.4000
G01 Y36.9000
G01 X47.3829
G01 Y42.3000
G01 X49.4000
G01 X42.5000
G01 Y47.7000
G01 X49.4000
G01 Y53.1000
G01 X42.5000
G01 Y58.5000
G01 X49.4000
G00 Z5.0000
G00 Y4.5000
G00 Z-5.5000
G01 Z-6.2500 F900
G01 X42.5000 F3000
G01 Y9.9000
G01 X49.4000
G01 Y15.3000
G01 X42.5000
G01 Y20.7000
G01 X49.4000
G01 Y26.1000
G01 X47.3811
G01 X47.4282 Y26.2848
G01 X47.4820 Y26.6406
G01 X47.5000 Y27.0000
G01 Y31.5000
G01 X49.4000
G01 Y36.9000
G01 X47.3829
G01 Y42.3000
G01 X49.4000
G01 X42.5000
G01 Y47.7000
G01 X49.4000
G01 Y53.1000
G01 X42.5000
G01 Y58.5000
G01 X49.4000
G00 Z5.0000
G00 Y4.5000
G00 Z-5.7500
G01 Z-6.5000 F900
G01 X42.5000 F3000
G01 Y9.9000
G01 X49.4000
G01 Y15.3000
G01 X42.5000
G01 Y20.7000
G01 X49.4000
G01 Y26.1000
G01 X47.3811
G01 X47.4282 Y26.2848
G01 X47.4820 Y26.6406
G01 X47.5000 Y27.0000
G01 Y31.5000
G01 X49.4000
G01 Y36.9000
G01 X47.3829
G01 Y42.3000
G01 X49.4000
G01 X42.5000
G01 Y47.7000
G01 X49.4000
G01 Y53.1000
G01 X42.5000
G01 Y58.5000
G01 X49.4000
G00 Z5.0000
G00 Y4.5000
G00 Z-6.0000
G01 Z-6.7500 F900
G01 X42.5000 F3000
G01 Y9.9000
G01 X49.4000
G01 Y15.3000
G01 X42.5000
G01 Y20.7000
G01 X49.4000
G01 Y26.1000
G01 X47.3811
G01 X47.4282 Y26.2848
G01 X47.4820 Y26.6406
G01 X47.5000 Y27.0000
G01 Y31.5000
G01 X49.4000
G01 Y36.9000
G01 X47.3829
G01 Y42.3000
G01 X49.4000
G01 X42.5000
G01 Y47.7000
G01 X49.4000
G01 Y53.1000
G01 X42.5000
G01 Y58.5000
G01 X49.4000
G00 Z5.0000
G00 Y4.5000
G00 Z-6.2500
G01 Z-7.0000 F900
G01 X42.5000 F3000
G01 Y9.9000
G01 X49.4000
G01 Y15.3000
G01 X42.5000
G01 Y20.7000
G01 X49.4000
G01 Y26.1000
G01 X47.3811
G01 X47.4282 Y26.2848
G01 X47.4820 Y26.6406
G01 X47.5000 Y27.0000
G01 Y31.5000
G01 X49.4000
G01 Y36.9000
G01 X47.3829
G01 Y42.3000
G01 X49.4000
G01 X42.5000
G01 Y47.7000
G01 X49.4000
G01 Y53.1000
G01 X42.5000
G01 Y58.5000
G01 X49.4000
G00 Z5.0000
G00 Y4.5000
G00 Z-6.5000
G01 Z-7.2500 F900
G01 X42.5000 F3000
G01 Y9.9000
G01 X49.4000
G01 Y15.3000
G01 X42.5000
G01 Y20.7000
G01 X49.4000
G01 Y26.1000
G01 X47.3811
G01 X47.4282 Y26.2848
G01 X47.4820 Y26.6406
G01 X47.5000 Y27.0000
G01 Y31.5000
G01 X49.4000
G01 Y36.9000
G01 X47.3829
G01 Y42.3000
G01 X49.4000
G01 X42.5000
G01 Y47.7000
G01 X49.4000
G01 Y53.1000
G01 X42.5000
G01 Y58.5000
G01 X49.4000
G00 Z5.0000
G00 Y4.5000
G00 Z-6.7500
G01 Z-7.5000 F900
G01 X42.5000 F3000
G01 Y9.9000
G01 X49.4000
G01 Y15.3000
G01 X42.5000
G01 Y20.7000
G01 X49.4000
G01 Y26.1000
G01 X47.3811
G01 X47.4282 Y26.2848
G01 X47.4820 Y26.6406
G01 X47.5000 Y27.0000
G01 Y31.5000
G01 X49.4000
G01 Y36.9000
G01 X47.3829
G01 Y42.3000
G01 X49.4000
G01 X42.5000
G01 Y47.7000
G01 X49.4000
G01 Y53.1000
G01 X42.5000
G01 Y58.5000
G01 X49.4000
G00 Z5.0000
G00 Y4.5000
G00 Z-7.0000
G01 Z-7.7500 F900
G01 X42.5000 F3000
G01 Y9.9000
G01 X49.4000
G01 Y15.3000
G01 X42.5000
G01 Y20.7000
G01 X49.4000
G01 Y26.1000
G01 X47.3811
G01 X47.4282 Y26.2848
G01 X47.4820 Y26.6406
G01 X47.5000 Y27.0000
G01 Y31.5000
G01 X49.4000
G01 Y36.9000
G01 X47.3829
G01 Y42.3000
G01 X49.4000
G01 X42.5000
G01 Y47.7000
G01 X49.4000
G01 Y53.1000
G01 X42.5000
G01 Y58.5000
G01 X49.4000
G00 Z5.0000
G00 Y4.5000
G00 Z-7.2500
G01 Z-8.0000 F900
G01 X42.5000 F3000
G01 Y9.9000
G01 X49.4000
G01 Y15.3000
G01 X42.5000
G01 Y20.7000
G01 X49.4000
G01 Y26.1000
G01 X47.3811
G01 X47.4282 Y26.2848
G01 X47.4820 Y26.6406
G01 X47.5000 Y27.0000
G01 Y31.5000
G01 X49.4000
G01 Y36.9000
G01 X47.3829
G01 Y42.3000
G01 X49.4000
G01 X42.5000
G01 Y47.7000
G01 X49.4000
G01 Y53.1000
G01 X42.5000
G01 Y58.5000
G01 X49.4000
G00 Z5.0000
G00 Y4.5000
G00 Z-7.5000
G01 Z-8.2500 F900
G01 X42.5000 F3000
G01 Y9.9000
G01 X49.4000
G01 Y15.3000
G01 X42.5000
G01 Y20.7000
G01 X49.4000
G01 Y26.1000
G01 X47.3811
G01 X47.4282 Y26.2848
G01 X47.4820 Y26.6406
G01 X47.5000 Y27.0000
G01 Y31.5000
G01 X49.4000
G01 Y36.9000
G01 X47.3829
G01 Y42.3000
G01 X49.4000
G01 X42.5000
G01 Y47.7000
G01 X49.4000
G01 Y53.1000
G01 X42.5000
G01 Y58.5000
G01 X49.4000
G00 Z5.0000
G00 Y4.5000
G00 Z-7.7500
G01 Z-8.5000 F900
G01 X42.5000 F3000
G01 Y9.9000
G01 X49.4000
G01 Y15.3000
G01 X42.5000
G01 Y20.7000
G01 X49.4000
G01 Y26.1000
G01 X47.3811
G01 X47.4282 Y26.2848
G01 X47.4820 Y26.6406
G01 X47.5000 Y27.0000
G01 Y31.5000
G01 X49.4000
G01 Y36.9000
G01 X47.3829
G01 Y42.3000
G01 X49.4000
G01 X42.5000
G01 Y47.7000
G01 X49.4000
G01 Y53.1000
G01 X42.5000
G01 Y58.5000
G01 X49.4000
G00 Z5.0000
G00 Y4.5000
G00 Z-8.0000
G01 Z-8.7500 F900
G01 X42.5000 F3000
G01 Y9.9000
G01 X49.4000
G01 Y15.3000
G01 X42.5000
G01 Y20.7000
G01 X49.4000
G01 Y26.1000
G01 X47.3811
G01 X47.4282 Y26.2848
G01 X47.4820 Y26.6406
G01 X47.5000 Y27.0000
G01 Y31.5000
G01 X49.4000
G01 Y36.9000
G01 X47.3829
G01 Y42.3000
G01 X49.4000
G01 X42.5000
G01 Y47.7000
G01 X49.4000
G01 Y53.1000
G01 X42.5000
G01 Y58.5000
G01 X49.4000
G00 Z5.0000
G00 Y4.5000
G00 Z-8.2500
G01 Z-9.0000 F900
G01 X42.5000 F3000
G01 Y9.9000
G01 X49.4000
G01 Y15.3000
G01 X42.5000
G01 Y20.7000
G01 X49.4000
G01 Y26.1000
G01 X47.3811
G01 X47.4282 Y26.2848
G01 X47.4820 Y26.6406
G01 X47.5000 Y27.0000
G01 Y31.5000
G01 X49.4000
G01 Y36.9000
G01 X47.3829
G01 Y42.3000
G01 X49.4000
G01 X42.5000
G01 Y47.7000
G01 X49.4000
G01 Y53.1000
G01 X42.5000
G01 Y58.5000
G01 X49.4000
G00 Z5.0000
G00 Y4.5000
G00 Z-8.5000
G01 Z-9.2500 F900
G01 X42.5000 F3000
G01 Y9.9000
G01 X49.4000
G01 Y15.3000
G01 X42.5000
G01 Y20.7000
G01 X49.4000
G01 Y26.1000
G01 X47.3811
G01 X47.4282 Y26.2848
G01 X47.4820 Y26.6406
G01 X47.5000 Y27.0000
G01 Y31.5000
G01 X49.4000
G01 Y36.9000
G01 X47.3829
G01 Y42.3000
G01 X49.4000
G01 X42.5000
G01 Y47.7000
G01 X49.4000
G01 Y53.1000
G01 X42.5000
G01 Y58.5000
G01 X49.4000
G00 Z5.0000
G00 Y4.5000
G00 Z-8.7500
G01 Z-9.5000 F900
G01 X42.5000 F3000
G01 Y9.9000
G01 X49.4000
G01 Y15.3000
G01 X42.5000
G01 Y20.7000
G01 X49.4000
G01 Y26.1000
G01 X47.3811
G01 X47.4282 Y26.2848
G01 X47.4820 Y26.6406
G01 X47.5000 Y27.0000
G01 Y31.5000
G01 X49.4000
G01 Y36.9000
G01 X47.3829
G01 Y42.3000
G01 X49.4000
G01 X42.5000
G01 Y47.7000
G01 X49.4000
G01 Y53.1000
G01 X42.5000
G01 Y58.5000
G01 X49.4000
G00 Z5.0000
G00 Y4.5000
G00 Z-9.0000
G01 Z-9.7500 F900
G01 X42.5000 F3000
G01 Y9.9000
G01 X49.4000
G01 Y15.3000
G01 X42.5000
G01 Y20.7000
G01 X49.4000
G01 Y26.1000
G01 X47.3811
G01 X47.4282 Y26.2848
G01 X47.4820 Y26.6406
G01 X47.5000 Y27.0000
G01 Y31.5000
G01 X49.4000
G01 Y36.9000
G01 X47.3829
G01 Y42.3000
G01 X49.4000
G01 X42.5000
G01 Y47.7000
G01 X49.4000
G01 Y53.1000
G01 X42.5000
G01 Y58.5000
G01 X49.4000
G00 Z5.0000
G00 Y4.5000
G00 Z-9.2500
G01 Z-10.0000 F900
G01 X42.5000 F3000
G01 Y9.9000
G01 X49.4000
G01 Y15.3000
G01 X42.5000
G01 Y20.7000
G01 X49.4000
G01 Y26.1000
G01 X47.3811
G01 X47.4282 Y26.2848
G01 X47.4820 Y26.6406
G01 X47.5000 Y27.0000
G01 Y31.5000
G01 X49.4000
G01 Y36.9000
G01 X47.3829
G01 Y42.3000
G01 X49.4000
G01 X42.5000
G01 Y47.7000
G01 X49.4000
G01 Y53.1000
G01 X42.5000
G01 Y58.5000
G01 X49.4000
G00 Z5.0000
G00 Y4.5000
G00 Z-9.5000
G01 Z-10.2500 F900
G01 X42.5000 F3000
G01 Y9.9000
G01 X49.4000
G01 Y15.3000
G01 X42.5000
G01 Y20.7000
G01 X49.4000
G01 Y26.1000
G01 X47.3811
G01 X47.4282 Y26.2848
G01 X47.4820 Y26.6406
G01 X47.5000 Y27.0000
G01 Y31.5000
G01 X49.4000
G01 Y36.9000
G01 X47.3829
G01 Y42.3000
G01 X49.4000
G01 X42.5000
G01 Y47.7000
G01 X49.4000
G01 Y53.1000
G01 X42.5000
G01 Y58.5000
G01 X49.4000
G00 Z5.0000
G00 Y4.5000
G00 Z-9.7500
G01 Z-10.5000 F900
G01 X42.5000 F3000
G01 Y9.9000
G01 X49.4000
G01 Y15.3000
G01 X42.5000
G01 Y20.7000
G01 X49.4000
G01 Y26.1000
G01 X47.3811
G01 X47.4282 Y26.2848
G01 X47.4820 Y26.6406
G01 X47.5000 Y27.0000
G01 Y31.5000
G01 X49.4000
G01 Y36.9000
G01 X47.3829
G01 Y42.3000
G01 X49.4000
G01 X42.5000
G01 Y47.7000
G01 X49.4000
G01 Y53.1000
G01 X42.5000
G01 Y58.5000
G01 X49.4000
G00 Z5.0000
G00 Y4.5000
G00 Z-10.0000
G01 Z-10.7500 F900
G01 X42.5000 F3000
G01 Y9.9000
G01 X49.4000
G01 Y15.3000
G01 X42.5000
G01 Y20.7000
G01 X49.4000
G01 Y26.1000
G01 X47.3811
G01 X47.4282 Y26.2848
G01 X47.4820 Y26.6406
G01 X47.5000 Y27.0000
G01 Y31.5000
G01 X49.4000
G01 Y36.9000
G01 X47.3829
G01 Y42.3000
G01 X49.4000
G01 X42.5000
G01 Y47.7000
G01 X49.4000
G01 Y53.1000
G01 X42.5000
G01 Y58.5000
G01 X49.4000
G00 Z5.0000
G00 Y4.5000
G00 Z-10.2500
G01 Z-11.0000 F900
G01 X42.5000 F3000
G01 Y9.9000
G01 X49.4000
G01 Y15.3000
G01 X42.5000
G01 Y20.7000
G01 X49.4000
G01 Y26.1000
G01 X47.3811
G01 X47.4282 Y26.2848
G01 X47.4820 Y26.6406
G01 X47.5000 Y27.0000
G01 Y31.5000
G01 X49.4000
G01 Y36.9000
G01 X47.3829
G01 Y42.3000
G01 X49.4000
G01 X42.5000
G01 Y47.7000
G01 X49.4000
G01 Y53.1000
G01 X42.5000
G01 Y58.5000
G01 X49.4000
G00 Z5.0000
G00 Y4.5000
G00 Z-10.5000
G01 Z-11.2500 F900
G01 X42.5000 F3000
G01 Y9.9000
G01 X49.4000
G01 Y15.3000
G01 X42.5000
G01 Y20.7000
G01 X49.4000
G01 Y26.1000
G01 X47.3811
G01 X47.4282 Y26.2848
G01 X47.4820 Y26.6406
G01 X47.5000 Y27.0000
G01 Y31.5000
G01 X49.4000
G01 Y36.9000
G01 X47.3829
G01 Y42.3000
G01 X49.4000
G01 X42.5000
G01 Y47.7000
G01 X49.4000
G01 Y53.1000
G01 X42.5000
G01 Y58.5000
G01 X49.4000
G00 Z5.0000
G00 Y4.5000
G00 Z-10.7500
G01 Z-11.5000 F900
G01 X42.5000 F3000
G01 Y9.9000
G01 X49.4000
G01 Y15.3000
G01 X42.5000
G01 Y20.7000
G01 X49.4000
G01 Y26.1000
G01 X47.3811
G01 X47.4282 Y26.2848
G01 X47.4820 Y26.6406
G01 X47.5000 Y27.0000
G01 Y31.5000
G01 X49.4000
G01 Y36.9000
G01 X47.3829
G01 Y42.3000
G01 X49.4000
G01 X42.5000
G01 Y47.7000
G01 X49.4000
G01 Y53.1000
G01 X42.5000
G01 Y58.5000
G01 X49.4000
G00 Z5.0000
G00 Y4.5000
G00 Z-11.0000
G01 Z-11.7500 F900
G01 X42.5000 F3000
G01 Y9.9000
G01 X49.4000
G01 Y15.3000
G01 X42.5000
G01 Y20.7000
G01 X49.4000
G01 Y26.1000
G01 X47.3811
G01 X47.4282 Y26.2848
G01 X47.4820 Y26.6406
G01 X47.5000 Y27.0000
G01 Y31.5000
G01 X49.4000
G01 Y36.9000
G01 X47.3829
G01 Y42.3000
G01 X49.4000
G01 X42.5000
G01 Y47.7000
G01 X49.4000
G01 Y53.1000
G01 X42.5000
G01 Y58.5000
G01 X49.4000
G00 Z5.0000
G00 Y4.5000
G00 Z-11.2500
G01 Z-12.0000 F900
G01 X42.5000 F3000
G01 Y9.9000
G01 X49.4000
G01 Y15.3000
G01 X42.5000
G01 Y20.7000
G01 X49.4000
G01 Y26.1000
G01 X47.3811
G01 X47.4282 Y26.2848
G01 X47.4820 Y26.6406
G01 X47.5000 Y27.0000
G01 Y31.5000
G01 X49.4000
G01 Y36.9000
G01 X47.3829
G01 Y42.3000
G01 X49.4000
G01 X42.5000
G01 Y47.7000
G01 X49.4000
G01 Y53.1000
G01 X42.5000
G01 Y58.5000
G01 X49.4000
G00 Z5.0000
G00 Y4.5000
G00 Z-11.5000
G01 Z-12.2500 F900
G01 X42.5000 F3000
G01 Y9.9000
G01 X49.4000
G01 Y15.3000
G01 X42.5000
G01 Y20.7000
G01 X49.4000
G01 Y26.1000
G01 X47.3811
G01 X47.4282 Y26.2848
G01 X47.4820 Y26.6406
G01 X47.5000 Y27.0000
G01 Y31.5000
G01 X49.4000
G01 Y36.9000
G01 X47.3829
G01 Y42.3000
G01 X49.4000
G01 X42.5000
G01 Y47.7000
G01 X49.4000
G01 Y53.1000
G01 X42.5000
G01 Y58.5000
G01 X49.4000
G00 Z5.0000
G00 Y4.5000
G00 Z-11.7500
G01 Z-12.5000 F900
G01 X42.5000 F3000
G01 Y9.9000
G01 X49.4000
G01 Y15.3000
G01 X42.5000
G01 Y20.7000
G01 X49.4000
G01 Y26.1000
G01 X47.3811
G01 X47.4282 Y26.2848
G01 X47.4820 Y26.6406
G01 X47.5000 Y27.0000
G01 Y31.5000
G01 X49.4000
G01 Y36.9000
G01 X47.3829
G01 Y42.3000
G01 X49.4000
G01 X42.5000
G01 Y47.7000
G01 X49.4000
G01 Y53.1000
G01 X42.5000
G01 Y58.5000
G01 X49.4000
G00 Z5.0000
G00 Y4.5000
G00 Z-12.0000
G01 Z-12.7500 F900
G01 X42.5000 F3000
G01 Y9.9000
G01 X49.4000
G01 Y15.3000
G01 X42.5000
G01 Y20.7000
G01 X49.4000
G01 Y26.1000
G01 X47.3811
G01 X47.4282 Y26.2848
G01 X47.4820 Y26.6406
G01 X47.5000 Y27.0000
G01 Y31.5000
G01 X49.4000
G01 Y36.9000
G01 X47.3829
G01 Y42.3000
G01 X49.4000
G01 X42.5000
G01 Y47.7000
G01 X49.4000
G01 Y53.1000
G01 X42.5000
G01 Y58.5000
G01 X49.4000
G00 Z5.0000
G00 Y4.5000
G00 Z-12.2500
G01 Z-13.0000 F900
G01 X42.5000 F3000
G01 Y9.9000
G01 X49.4000
G01 Y15.3000
G01 X42.5000
G01 Y20.7000
G01 X49.4000
G01 Y26.1000
G01 X47.3811
G01 X47.4282 Y26.2848
G01 X47.4820 Y26.6406
G01 X47.5000 Y27.0000
G01 Y31.5000
G01 X49.4000
G01 Y36.9000
G01 X47.3829
G01 Y42.3000
G01 X49.4000
G01 X42.5000
G01 Y47.7000
G01 X49.4000
G01 Y53.1000
G01 X42.5000
G01 Y58.5000
G01 X49.4000
G00 Z5.0000
G00 Y4.5000
G00 Z-12.5000
G01 Z-13.2500 F900
G01 X42.5000 F3000
G01 Y9.9000
G01 X49.4000
G01 Y15.3000
G01 X42.5000
G01 Y20.7000
G01 X49.4000
G01 Y26.1000
G01 X47.3811
G01 X47.4282 Y26.2848
G01 X47.4820 Y26.6406
G01 X47.5000 Y27.0000
G01 Y31.5000
G01 X49.4000
G01 Y36.9000
G01 X47.3829
G01 Y42.3000
G01 X49.4000
G01 X42.5000
G01 Y47.7000
G01 X49.4000
G01 Y53.1000
G01 X42.5000
G01 Y58.5000
G01 X49.4000
G00 Z5.0000
G00 Y4.5000
G00 Z-12.7500
G01 Z-13.5000 F900
G01 X42.5000 F3000
G01 Y9.9000
G01 X49.4000
G01 Y15.3000
G01 X42.5000
G01 Y20.7000
G01 X49.4000
G01 Y26.1000
G01 X47.3811
G01 X47.4282 Y26.2848
G01 X47.4820 Y26.6406
G01 X47.5000 Y27.0000
G01 Y31.5000
G01 X49.4000
G01 Y36.9000
G01 X47.3829
G01 Y42.3000
G01 X49.4000
G01 X42.5000
G01 Y47.7000
G01 X49.4000
G01 Y53.1000
G01 X42.5000
G01 Y58.5000
G01 X49.4000
G00 Z5.0000
G00 Y4.5000
G00 Z-13.0000
G01 Z-13.7500 F900
G01 X42.5000 F3000
G01 Y9.9000
G01 X49.4000
G01 Y15.3000
G01 X42.5000
G01 Y20.7000
G01 X49.4000
G01 Y26.1000
G01 X47.3811
G01 X47.4282 Y26.2848
G01 X47.4820 Y26.6406
G01 X47.5000 Y27.0000
G01 Y31.5000
G01 X49.4000
G01 Y36.9000
G01 X47.3829
G01 Y42.3000
G01 X49.4000
G01 X42.5000
G01 Y47.7000
G01 X49.4000
G01 Y53.1000
G01 X42.5000
G01 Y58.5000
G01 X49.4000
G00 Z5.0000
G00 Y4.5000
G00 Z-13.2500
G01 Z-14.0000 F900
G01 X42.5000 F3000
G01 Y9.9000
G01 X49.4000
G01 Y15.3000
G01 X42.5000
G01 Y20.7000
G01 X49.4000
G01 Y26.1000
G01 X47.3811
G01 X47.4282 Y26.2848
G01 X47.4820 Y26.6406
G01 X47.5000 Y27.0000
G01 Y31.5000
G01 X49.4000
G01 Y36.9000
G01 X47.3829
G01 Y42.3000
G01 X49.4000
G01 X42.5000
G01 Y47.7000
G01 X49.4000
G01 Y53.1000
G01 X42.5000
G01 Y58.5000
G01 X49.4000
G00 Z5.0000
G00 Y4.5000
G00 Z-13.5000
G01 Z-14.2500 F900
G01 X42.5000 F3000
G01 Y9.9000
G01 X49.4000
G01 Y15.3000
G01 X42.5000
G01 Y20.7000
G01 X49.4000
G01 Y26.1000
G01 X47.3811
G01 X47.4282 Y26.2848
G01 X47.4820 Y26.6406
G01 X47.5000 Y27.0000
G01 Y31.5000
G01 X49.4000
G01 Y36.9000
G01 X47.3829
G01 Y42.3000
G01 X49.4000
G01 X42.5000
G01 Y47.7000
G01 X49.4000
G01 Y53.1000
G01 X42.5000
G01 Y58.5000
G01 X49.4000
G00 Z5.0000
G00 Y4.5000
G00 Z-13.7500
G01 Z-14.5000 F900
G01 X42.5000 F3000
G01 Y9.9000
G01 X49.4000
G01 Y15.3000
G01 X42.5000
G01 Y20.7000
G01 X49.4000
G01 Y26.1000
G01 X47.3811
G01 X47.4282 Y26.2848
G01 X47.4820 Y26.6406
G01 X47.5000 Y27.0000
G01 Y31.5000
G01 X49.4000
G01 Y36.9000
G01 X47.3829
G01 Y42.3000
G01 X49.4000
G01 X42.5000
G01 Y47.7000
G01 X49.4000
G01 Y53.1000
G01 X42.5000
G01 Y58.5000
G01 X49.4000
G00 Z5.0000
G00 Y4.5000
G00 Z-14.0000
G01 Z-14.7500 F900
G01 X42.5000 F3000
G01 Y9.9000
G01 X49.4000
G01 Y15.3000
G01 X42.5000
G01 Y20.7000
G01 X49.4000
G01 Y26.1000
G01 X47.3811
G01 X47.4282 Y26.2848
G01 X47.4820 Y26.6406
G01 X47.5000 Y27.0000
G01 Y31.5000
G01 X49.4000
G01 Y36.9000
G01 X47.3829
G01 Y42.3000
G01 X49.4000
G01 X42.5000
G01 Y47.7000
G01 X49.4000
G01 Y53.1000
G01 X42.5000
G01 Y58.5000
G01 X49.4000
G00 Z5.0000
G00 Y4.5000
G00 Z-14.2500
G01 Z-15.0000 F900
G01 X42.5000 F3000
G01 Y9.9000
G01 X49.4000
G01 Y15.3000
G01 X42.5000
G01 Y20.7000
G01 X49.4000
G01 Y26.1000
G01 X47.3811
G01 X47.4282 Y26.2848
G01 X47.4820 Y26.6406
G01 X47.5000 Y27.0000
G01 Y31.5000
G01 X49.4000
G01 Y36.9000
G01 X47.3829
G01 Y42.3000
G01 X49.4000
G01 X42.5000
G01 Y47.7000
G01 X49.4000
G01 Y53.1000
G01 X42.5000
G01 Y58.5000
G01 X49.4000
G00 Z5.0000
G00 Y4.5000
G00 Z-14.5000
G01 Z-15.2500 F900
G01 X42.5000 F3000
G01 Y9.9000
G01 X49.4000
G01 Y15.3000
G01 X42.5000
G01 Y20.7000
G01 X49.4000
G01 Y26.1000
G01 X47.3811
G01 X47.4282 Y26.2848
G01 X47.4820 Y26.6406
G01 X47.5000 Y27.0000
G01 Y31.5000
G01 X49.4000
G01 Y36.9000
G01 X47.3829
G01 Y42.3000
G01 X49.4000
G01 X42.5000
G01 Y47.7000
G01 X49.4000
G01 Y53.1000
G01 X42.5000
G01 Y58.5000
G01 X49.4000
G00 Z5.0000
G00 Y4.5000
G00 Z-14.7500
G01 Z-15.5000 F900
G01 X42.5000 F3000
G01 Y9.9000
G01 X49.4000
G01 Y15.3000
G01 X42.5000
G01 Y20.7000
G01 X49.4000
G01 Y26.1000
G01 X47.3811
G01 X47.4282 Y26.2848
G01 X47.4820 Y26.6406
G01 X47.5000 Y27.0000
G01 Y31.5000
G01 X49.4000
G01 Y36.9000
G01 X47.3829
G01 Y42.3000
G01 X49.4000
G01 X42.5000
G01 Y47.7000
G01 X49.4000
G01 Y53.1000
G01 X42.5000
G01 Y58.5000
G01 X49.4000
G00 Z5.0000
G00 Y4.5000
G00 Z-15.0000
G01 Z-15.7500 F900
G01 X42.5000 F3000
G01 Y9.9000
G01 X49.4000
G01 Y15.3000
G01 X42.5000
G01 Y20.7000
G01 X49.4000
G01 Y26.1000
G01 X47.3811
G01 X47.4282 Y26.2848
G01 X47.4820 Y26.6406
G01 X47.5000 Y27.0000
G01 Y31.5000
G01 X49.4000
G01 Y36.9000
G01 X47.3829
G01 Y42.3000
G01 X49.4000
G01 X42.5000
G01 Y47.7000
G01 X49.4000
G01 Y53.1000
G01 X42.5000
G01 Y58.5000
G01 X49.4000
G00 Z5.0000
G00 Y4.5000
G00 Z-15.2500
G01 Z-16.0000 F900
G01 X42.5000 F3000
G01 Y9.9000
G01 X49.4000
G01 Y15.3000
G01 X42.5000
G01 Y20.7000
G01 X49.4000
G01 Y26.1000
G01 X47.3811
G01 X47.4282 Y26.2848
G01 X47.4820 Y26.6406
G01 X47.5000 Y27.0000
G01 Y31.5000
G01 X49.4000
G01 Y36.9000
G01 X47.3829
G01 Y42.3000
G01 X49.4000
G01 X42.5000
G01 Y47.7000
G01 X49.4000
G01 Y53.1000
G01 X42.5000
G01 Y58.5000
G01 X49.4000
G00 Z5.0000
G00 Y4.5000
G00 Z-15.5000
G01 Z-16.2500 F900
G01 X42.5000 F3000
G01 Y9.9000
G01 X49.4000
G01 Y15.3000
G01 X42.5000
G01 Y20.7000
G01 X49.4000
G01 Y26.1000
G01 X47.3811
G01 X47.4282 Y26.2848
G01 X47.4820 Y26.6406
G01 X47.5000 Y27.0000
G01 Y31.5000
G01 X49.4000
G01 Y36.9000
G01 X47.3829
G01 Y42.3000
G01 X49.4000
G01 X42.5000
G01 Y47.7000
G01 X49.4000
G01 Y53.1000
G01 X42.5000
G01 Y58.5000
G01 X49.4000
G00 Z5.0000
G00 Y4.5000
G00 Z-15.7500
G01 Z-16.5000 F900
G01 X42.5000 F3000
G01 Y9.9000
G01 X49.4000
G01 Y15.3000
G01 X42.5000
G01 Y20.7000
G01 X49.4000
G01 Y26.1000
G01 X47.3811
G01 X47.4282 Y26.2848
G01 X47.4820 Y26.6406
G01 X47.5000 Y27.0000
G01 Y31.5000
G01 X49.4000
G01 Y36.9000
G01 X47.3829
G01 Y42.3000
G01 X49.4000
G01 X42.5000
G01 Y47.7000
G01 X49.4000
G01 Y53.1000
G01 X42.5000
G01 Y58.5000
G01 X49.4000
G00 Z5.0000
G00 Y4.5000
G00 Z-16.0000
G01 Z-16.7500 F900
G01 X42.5000 F3000
G01 Y9.9000
G01 X49.4000
G01 Y15.3000
G01 X42.5000
G01 Y20.7000
G01 X49.4000
G01 Y26.1000
G01 X47.3811
G01 X47.4282 Y26.2848
G01 X47.4820 Y26.6406
G01 X47.5000 Y27.0000
G01 Y31.5000
G01 X49.4000
G01 Y36.9000
G01 X47.3829
G01 Y42.3000
G01 X49.4000
G01 X42.5000
G01 Y47.7000
G01 X49.4000
G01 Y53.1000
G01 X42.5000
G01 Y58.5000
G01 X49.4000
G00 Z5.0000
G00 Y4.5000
G00 Z-16.2500
G01 Z-17.0000 F900
G01 X42.5000 F3000
G01 Y9.9000
G01 X49.4000
G01 Y15.3000
G01 X42.5000
G01 Y20.7000
G01 X49.4000
G01 Y26.1000
G01 X47.3811
G01 X47.4282 Y26.2848
G01 X47.4820 Y26.6406
G01 X47.5000 Y27.0000
G01 Y31.5000
G01 X49.4000
G01 Y36.9000
G01 X47.3829
G01 Y42.3000
G01 X49.4000
G01 X42.5000
G01 Y47.7000
G01 X49.4000
G01 Y53.1000
G01 X42.5000
G01 Y58.5000
G01 X49.4000
G00 Z5.0000
G00 Y4.5000
G00 Z-16.5000
G01 Z-17.2500 F900
G01 X42.5000 F3000
G01 Y9.9000
G01 X49.4000
G01 Y15.3000
G01 X42.5000
G01 Y20.7000
G01 X49.4000
G01 Y26.1000
G01 X47.3811
G01 X47.4282 Y26.2848
G01 X47.4820 Y26.6406
G01 X47.5000 Y27.0000
G01 Y31.5000
G01 X49.4000
G01 Y36.9000
G01 X47.3829
G01 Y42.3000
G01 X49.4000
G01 X42.5000
G01 Y47.7000
G01 X49.4000
G01 Y53.1000
G01 X42.5000
G01 Y58.5000
G01 X49.4000
G00 Z5.0000
G00 Y4.5000
G00 Z-16.7500
G01 Z-17.5000 F900
G01 X42.5000 F3000
G01 Y9.9000
G01 X49.4000
G01 Y15.3000
G01 X42.5000
G01 Y20.7000
G01 X49.4000
G01 Y26.1000
G01 X47.3811
G01 X47.4282 Y26.2848
G01 X47.4820 Y26.6406
G01 X47.5000 Y27.0000
G01 Y31.5000
G01 X49.4000
G01 Y36.9000
G01 X47.3829
G01 Y42.3000
G01 X49.4000
G01 X42.5000
G01 Y47.7000
G01 X49.4000
G01 Y53.1000
G01 X42.5000
G01 Y58.5000
G01 X49.4000
G00 Z5.0000
G00 Y4.5000
G00 Z-17.0000
G01 Z-17.7500 F900
G01 X42.5000 F3000
G01 Y9.9000
G01 X49.4000
G01 Y15.3000
G01 X42.5000
G01 Y20.7000
G01 X49.4000
G01 Y26.1000
G01 X47.3811
G01 X47.4282 Y26.2848
G01 X47.4820 Y26.6406
G01 X47.5000 Y27.0000
G01 Y31.5000
G01 X49.4000
G01 Y36.9000
G01 X47.3829
G01 Y42.3000
G01 X49.4000
G01 X42.5000
G01 Y47.7000
G01 X49.4000
G01 Y53.1000
G01 X42.5000
G01 Y58.5000
G01 X49.4000
G00 Z5.0000
G00 Y4.5000
G00 Z-17.2500
G01 Z-18.0000 F900
G01 X42.5000 F3000
G01 Y9.9000
G01 X49.4000
G01 Y15.3000
G01 X42.5000
G01 Y20.7000
G01 X49.4000
G01 Y26.1000
G01 X47.3811
G01 X47.4282 Y26.2848
G01 X47.4820 Y26.6406
G01 X47.5000 Y27.0000
G01 Y31.5000
G01 X49.4000
G01 Y36.9000
G01 X47.3829
G01 Y42.3000
G01 X49.4000
G01 X42.5000
G01 Y47.7000
G01 X49.4000
G01 Y53.1000
G01 X42.5000
G01 Y58.5000
G01 X49.4000
G00 Z5.0000
G00 Y4.5000
G00 Z-17.5000
G01 Z-18.2500 F900
G01 X42.5000 F3000
G01 Y9.9000
G01 X49.4000
G01 Y15.3000
G01 X42.5000
G01 Y20.7000
G01 X49.4000
G01 Y26.1000
G01 X47.3811
G01 X47.4282 Y26.2848
G01 X47.4820 Y26.6406
G01 X47.5000 Y27.0000
G01 Y31.5000
G01 X49.4000
G01 Y36.9000
G01 X47.3829
G01 Y42.3000
G01 X49.4000
G01 X42.5000
G01 Y47.7000
G01 X49.4000
G01 Y53.1000
G01 X42.5000
G01 Y58.5000
G01 X49.4000
G00 Z5.0000
G00 Y4.5000
G00 Z-17.7500
G01 Z-18.5000 F900
G01 X42.5000 F3000
G01 Y9.9000
G01 X49.4000
G01 Y15.3000
G01 X42.5000
G01 Y20.7000
G01 X49.4000
G01 Y26.1000
G01 X47.3811
G01 X47.4282 Y26.2848
G01 X47.4820 Y26.6406
G01 X47.5000 Y27.0000
G01 Y31.5000
G01 X49.4000
G01 Y36.9000
G01 X47.3829
G01 Y42.3000
G01 X49.4000
G01 X42.5000
G01 Y47.7000
G01 X49.4000
G01 Y53.1000
G01 X42.5000
G01 Y58.5000
G01 X49.4000
G00 Z5.0000
G00 Y4.5000
G00 Z-18.0000
G01 Z-18.7500 F900
G01 X42.5000 F3000
G01 Y9.9000
G01 X49.4000
G01 Y15.3000
G01 X42.5000
G01 Y20.7000
G01 X49.4000
G01 Y26.1000
G01 X47.3811
G01 X47.4282 Y26.2848
G01 X47.4820 Y26.6406
G01 X47.5000 Y27.0000
G01 Y31.5000
G01 X49.4000
G01 Y36.9000
G01 X47.3829
G01 Y42.3000
G01 X49.4000
G01 X42.5000
G01 Y47.7000
G01 X49.4000
G01 Y53.1000
G01 X42.5000
G01 Y58.5000
G01 X49.4000
G00 Z5.0000
G00 Y4.5000
G00 Z-18.2500
G01 Z-19.0000 F900
G01 X42.5000 F3000
G01 Y9.9000
G01 X49.4000
G01 Y15.3000
G01 X42.5000
G01 Y20.7000
G01 X49.4000
G01 Y26.1000
G01 X47.3811
G01 X47.4282 Y26.2848
G01 X47.4820 Y26.6406
G01 X47.5000 Y27.0000
G01 Y31.5000
G01 X49.4000
G01 Y36.9000
G01 X47.3829
G01 Y42.3000
G01 X49.4000
G01 X42.5000
G01 Y47.7000
G01 X49.4000
G01 Y53.1000
G01 X42.5000
G01 Y58.5000
G01 X49.4000
G00 Z5.0000
G00 Y4.5000
G00 Z-18.5000
G01 Z-19.2500 F900
G01 X42.5000 F3000
G01 Y9.9000
G01 X49.4000
G01 Y15.3000
G01 X42.5000
G01 Y20.7000
G01 X49.4000
G01 Y26.1000
G01 X47.3811
G01 X47.4282 Y26.2848
G01 X47.4820 Y26.6406
G01 X47.5000 Y27.0000
G01 Y31.5000
G01 X49.4000
G01 Y36.9000
G01 X47.3829
G01 Y42.3000
G01 X49.4000
G01 X42.5000
G01 Y47.7000
G01 X49.4000
G01 Y53.1000
G01 X42.5000
G01 Y58.5000
G01 X49.4000
G00 Z5.0000
G00 Y4.5000
G00 Z-18.7500
G01 Z-19.5000 F900
G01 X42.5000 F3000
G01 Y9.9000
G01 X49.4000
G01 Y15.3000
G01 X42.5000
G01 Y20.7000
G01 X49.4000
G01 Y26.1000
G01 X47.3811
G01 X47.4282 Y26.2848
G01 X47.4820 Y26.6406
G01 X47.5000 Y27.0000
G01 Y31.5000
G01 X49.4000
G01 Y36.9000
G01 X47.3829
G01 Y42.3000
G01 X49.4000
G01 X42.5000
G01 Y47.7000
G01 X49.4000
G01 Y53.1000
G01 X42.5000
G01 Y58.5000
G01 X49.4000
G00 Z5.0000
G00 Y4.5000
G00 Z-19.0000
G01 Z-19.7500 F900
G01 X42.5000 F3000
G01 Y9.9000
G01 X49.4000
G01 Y15.3000
G01 X42.5000
G01 Y20.7000
G01 X49.4000
G01 Y26.1000
G01 X47.3811
G01 X47.4282 Y26.2848
G01 X47.4820 Y26.6406
G01 X47.5000 Y27.0000
G01 Y31.5000
G01 X49.4000
G01 Y36.9000
G01 X47.3829
G01 Y42.3000
G01 X49.4000
G01 X42.5000
G01 Y47.7000
G01 X49.4000
G01 Y53.1000
G01 X42.5000
G01 Y58.5000
G01 X49.4000
G00 Z5.0000
